!!!COM: Liszt, Franz
!!!CDT: 1811/10/22-1886/07/31/
!!!OTL: Ballade No. 2 in B Minor, S. 171
!!!SCA: S. 171
!!!ODT: 1853
!!!PDT: 1854
!!!PPR: Kistner
!!!ODE: Count Charles de Linange
**kern	**kern	**dynam
*staff2	*staff1	*staff1
*clefF4	*clefG2	*clefG2
*k[f#c#]	*k[f#c#]	*k[f#c#]
*M6/4	*M6/4	*M6/4
*MM144	*MM144	*MM144
8FFF#/	8r	.
=1	=1	=1
12BBB/L	1.r	.
12CCn/	.	.
12CC#/	.	.
12DDn/	.	.
12DD#/	.	.
12EE/	.	.
12EE#/	.	.
12FF#/	.	.
12GG/J	.	.
12FF#/L	.	.
12EE#/	.	.
12EEn/	.	.
12DD#/	.	.
12DDn/	.	.
12CC#/	.	.
12CCn/	.	.
12BBB/	.	.
12FFF#/J	.	.
=2	=2	=2
12BBB/L	1.r	.
12CCn/	.	.
12CC#/	.	.
12DDn/	.	.
12DD#/	.	.
12EE/	.	.
12EE#/	.	.
12FF#/	.	.
12GG/J	.	.
12FF#/L	.	.
12EE#/	.	.
12EEn/	.	.
12DD#/	.	.
12DDn/	.	.
12CC#/	.	.
12CCn/	.	.
12BBB/	.	.
12FFF#/J	.	.
*	*clefF4	*clefF4
=3	=3	=3
*	*^	*
12BBB/L	1.F#	4r	.
12CCn/	.	.	.
12CC#/	.	.	.
12DDn/	.	4r	.
12DD#/	.	.	.
12EE/	.	.	.
12EE#/	.	[4BB\ [4Dn\	.
12FF#/	.	.	.
12GG/J	.	.	.
12FF#/L	.	2BB\] 2D\]	.
12EE#/	.	.	.
12EEn/	.	.	.
12DD#/	.	.	.
12DDn/	.	.	.
12CC#/	.	.	.
12CCn/	.	4BB\ 4D\	.
12BBB/	.	.	.
12FFF#/J	.	.	.
=4	=4	=4	=4
12BBB/L	2.G/	4r	.
12CCn/	.	.	.
12CC#/	.	.	.
12DDn/	.	4r	.
12DD#/	.	.	.
12EE/	.	.	.
12EE#/	.	[4BB\ [4Dn\	.
12FF#/	.	.	.
12GG/J	.	.	.
12FF#/L	2.A/	2BB\] 2D\]	.
12EE#/	.	.	.
12EEn/	.	.	.
12DD#/	.	.	.
12DDn/	.	.	.
12CC#/	.	.	.
12CCn/	.	4BB\ 4D\	.
12BBB/	.	.	.
12FFF#/J	.	.	.
=5	=5	=5	=5
12BBB/L	[1.B	4r	.
12CCn/	.	.	.
12CC#/	.	.	.
12DDn/	.	4r	.
12DD#/	.	.	.
12EE/	.	.	.
12EE#/	.	[4BB\ [4Dn\	.
12FF#/	.	.	.
12GG/J	.	.	.
12FF#/L	.	2BB\] 2D\]	.
12EE#/	.	.	.
12EEn/	.	.	.
12DD#/	.	.	.
12DDn/	.	.	.
12CC#/	.	.	.
12CCn/	.	4BB\ 4D\	.
12BBB/	.	.	.
12FFF#/J	.	.	.
=6	=6	=6	=6
12BBB/L	2B/]	4r	.
12CCn/	.	.	.
12CC#/	.	.	.
12DDn/	.	4r	.
12DD#/	.	.	.
12EE/	.	.	.
12EE#/	(4F#/	[4BB\ [4Dn\	.
12FF#/	.	.	.
12GG/J	.	.	.
12FF#/L	2A/	2BB\] 2D\]	.
12EE#/	.	.	.
12EEn/	.	.	.
12DD#/	.	.	.
12DDn/	.	.	.
12CC#/	.	.	.
12CCn/	4G/	4BB\ 4D\	.
12BBB/	.	.	.
12FFF#/J	.	.	.
=7	=7	=7	=7
12BBB/L	(1.G	4r	.
12CCn/	.	.	.
12CC#/	.	.	.
12DDn/	.	4r	.
12DD#/	.	.	.
12EE/	.	.	.
12EE#/	.	[4BB\ [4Dn\	.
12FF#/	.	.	.
12GG/J	.	.	.
12FF#/L	.	2BB\] 2D\]	.
12EE#/	.	.	.
12EEn/	.	.	.
12DD#/	.	.	.
12DDn/	.	.	.
12CC#/	.	.	.
12CCn/	.	4BB\ 4D\	.
12BBB/	.	.	.
12FFF#/J	.	.	.
=8	=8	=8	=8
12BBB/L	2.F#/	4r	.
12CCn/	.	.	.
12CC#/	.	.	.
12DDn/	.	4r	.
12DD#/	.	.	.
12EE/	.	.	.
12EE#/	.	[4BB\ [4Dn\	.
12FF#/	.	.	.
12GG/J	.	.	.
12FF#/L	2.r	2BB\] 2D\]	.
12EE#/	.	.	.
12EEn/	.	.	.
12DD#/	.	.	.
12DDn/	.	.	.
12CC#/	.	.	.
12CCn/	.	4BB\ 4D\	.
12BBB/	.	.	.
12FFF#/J	.	.	.
=9	=9	=9	=9
12BBB/L	1.C#	4r	.
12CCn/	.	.	.
12CC#/	.	.	.
12DDn/	.	4r	.
12DD#/	.	.	.
12EE/	.	.	.
12EE#/	.	[4GG\ [4BB\	.
12FF#/	.	.	.
12EE#/J	.	.	.
12EEn/L	.	2GG\] 2BB\]	.
12DD#/	.	.	.
12DDn/	.	.	.
12CC#/	.	.	.
12CCn/	.	.	.
12BBB/	.	.	.
12GGG/	.	4GG\ 4BB\	.
12AAA/	.	.	.
12AAA#/J	.	.	.
=10	=10	=10	=10
12BBB/L	2.D/	4r	.
12CCn/	.	.	.
12CC#/	.	.	.
12DDn/	.	4r	.
12DD#/	.	.	.
12EE/	.	.	.
12EE#/	.	[4GG\ [4BB\	.
12FF#/	.	.	.
12EE#/J	.	.	.
12EEn/L	2.E/	2GG\] 2BB\]	.
12DD#/	.	.	.
12DDn/	.	.	.
12CC#/	.	.	.
12CCn/	.	.	.
12BBB/	.	.	.
12GGG/	.	4GG\ 4BB\	.
12AAA/	.	.	.
12AAA#/J	.	.	.
=11	=11	=11	=11
12BBB/L	[1.F#	4r	.
12CCn/	.	.	.
12CC#/	.	.	.
12DDn/	.	4r	.
12DD#/	.	.	.
12EE/	.	.	.
12EE#/	.	[4BB\ [4Dn\	.
12FF#/	.	.	.
12GG/J	.	.	.
12FF#/L	.	2BB\] 2D\]	.
12EE#/	.	.	.
12EEn/	.	.	.
12DD#/	.	.	.
12DDn/	.	.	.
12CC#/	.	.	.
12CCn/	.	4BB\ 4D\	.
12BBB/	.	.	.
12FFF#/J	.	.	.
=12	=12	=12	=12
12BBB/L	2.F#/]	4r	.
12CCn/	.	.	.
12CC#/	.	.	.
12DDn/	.	4r	.
12DD#/	.	.	.
12EE/	.	.	.
12EE#/	.	[4BB\ [4Dn\	.
12FF#/	.	.	.
12GG/J	.	.	.
12FF#/L	2A/	2BB\] 2D\]	.
12EE#/	.	.	.
12EEn/	.	.	.
12DD#/	.	.	.
12DDn/	.	.	.
12CC#/	.	.	.
12CCn/	4G/	4BB\ 4D\	.
12BBB/	.	.	.
12FFF#/J	.	.	.
=13	=13	=13	=13
12BBB/L	1.C#	4r	.
12CCn/	.	.	.
12CC#/	.	.	.
12DDn/	.	4r	.
12DD#/	.	.	.
12EE/	.	.	.
12EE#/	.	[4GG\ [4BB\	.
12FF#/	.	.	.
12EE#/J	.	.	.
12EEn/L	.	2GG\] 2BB\]	.
12DD#/	.	.	.
12DDn/	.	.	.
12CC#/	.	.	.
12CCn/	.	.	.
12BBB/	.	.	.
12GGG/	.	4GG\ 4BB\	.
12AAA/	.	.	.
12AAA#/J	.	.	.
=14	=14	=14	=14
12BBB/L	2.D/	4r	.
12CCn/	.	.	.
12CC#/	.	.	.
12DDn/	.	4r	.
12DD#/	.	.	.
12EE/	.	.	.
12EE#/	.	[4GG\ [4BB\	.
12FF#/	.	.	.
12EE#/J	.	.	.
12EEn/L	2.E/	2GG\] 2BB\]	.
12DD#/	.	.	.
12DDn/	.	.	.
12CC#/	.	.	.
12CCn/	.	.	.
12BBB/	.	.	.
12GGG/	.	4GG\ 4BB\	.
12AAA/	.	.	.
12AAA#/J	.	.	.
=15	=15	=15	=15
12BBB/L	1.F#	4r	.
12CCn/	.	.	.
12CC#/	.	.	.
12DDn/	.	4r	.
12DD#/	.	.	.
12EE/	.	.	.
12EE#/	.	[4BB\ [4Dn\	.
12FF#/	.	.	.
12GG/J	.	.	.
12FF#/L	.	2BB\] 2D\]	.
12EE#/	.	.	.
12EEn/	.	.	.
12DD#/	.	.	.
12DDn/	.	.	.
12CC#/	.	.	.
12CCn/	.	4BB\ 4D\	.
12BBB/	.	.	.
12AAA#/J	.	.	.
=16	=16	=16	=16
12AAAn/L	2.G/	4r	.
12AAA#/	.	.	.
12BBB/	.	.	.
12BBB#/	.	4r	.
12CC#/	.	.	.
12DD/	.	.	.
12DD#/	.	[4AA\ [4C#\	.
12EE/	.	.	.
12EE#/J	.	.	.
12FF#/L	2.A/	2AA\] 2C#\]	.
12EE#/	.	.	.
12EEn/	.	.	.
12DD#/	.	.	.
12DDn/	.	.	.
12CC#/	.	.	.
16CCn/L	.	4AA\ 4C#\	.
16BBBn/	.	.	.
16AAA#/	.	.	.
16AAAn/JJ	.	.	.
=17	=17	=17	=17
*	*v	*v	*
(8GGG/L	4r	.
8DD/	.	.
8FF#/	4D\ 4F#\ 4B\	.
8BB/J	.	.
12D\L	4r	.
12F#\J	.	.
12c#/	.	.
([2.e/	2.r	.
=18	=18	=18
8e/L]	1.r	.
8d/	.	.
8A/	.	.
8c#/	.	.
8B/	.	.
8F#/J	.	.
8A/L	.	.
8G/J	.	.
4D/	.	.
4D#/	.	.
=19	=19	=19
*met(C	*met(C	*met(C
*M4/4	*M4/4	*M4/4
8F#/	1r	>
4E/	.	.
(8BB/	.	.
4D/	.	.
[4C#/	.	.
*	*clefG2	*clefG2
=20	=20	=20
*MM72	*MM72	*MM72
2C#;/]	2r;	.
4r	4r	.
4FFF#/ (4FF#/	4A#/ 4f#/ 4cc#/	.
=21	=21	=21
2GGG/ 2GG/	2B/ 2f#/ 2cc#/	.
4AAAn/ 4AAn/	2B/ 2e/ 2cc#/	.
4BBB/ 4BB/	.	.
=22	=22	=22
2.CC#;/ 2.C#;/	2.A#;/ 2.f#;/ 2.cc#;/	.
(4F#\ 4f#\	4a#\ 4ff#\ 4ccc#\	.
=23	=23	=23
*^	*	*
2r	2G\ 2f#\	2b\ 2ff#\ 2ccc#\	.
2f#/	4An\	2b\ 2ee\ 2ccc#\	.
.	4B\	.	.
*v	*v	*	*
*clefG2	*	*
=24	=24	=24
*MM116	*MM116	*MM116
*^	*	*
[2f#/	[1c#	[2a#\ 2ff#\ [2aa#\	.
8f#/L]	.	8a#\] 8ff#\ 8aa#\L]	.
8f#/	.	8cc#\ (8aa#\	.
8a#/	.	8ff#\ 8ccc#\	.
8dd#/J	.	8aa#\ 8fff#\J	.
=25	=25	=25	=25
*	*	*^	*
8b/L	2..c#\]	8ddd#/L	4ff#\	.
8g#/	.	8bb/	.	.
8b/	.	8gg#/	2dd#\	.
8f#/J	.	8aa#/J	.	.
8g#/L	.	8bb/L	.	.
8f##/	.	8aa#/	.	.
8g#/	.	8bb/	8dd#\L	.
8b/J	[8c#\	8ddd#/J	8ee#\J	.
*	*	*v	*v	*
=26	=26	=26	=26
2g##/	2c#\_	[2ff#\ 2bb#\	.
&(8a#/&	8c#\]	8ff#\] 8ccc#\	.
8r	8r	8r	.
4r	4r	4r	.
*v	*v	*	*
*clefF4	*	*
=27	=27	=27
*	*^	*
8r	8r	8r	.
8c#\L	(8a#/L	4f#\	.
8A#\	8cc#/	.	.
8d#\J	8ff#/J	8a#\	.
8B\L	8dd#/L	4f#\	.
8G#\	8b/	.	.
8B\	8g#/	[4d#\	.
8F#\J	8a#/J	.	.
=28	=28	=28	=28
*^	*	*	*
2r	8G#\L	8b/L	4.d#\]	.
.	8F##\	8a#/	.	.
.	8G#\	8b/	.	.
.	[8C#\ 8B\J	8dd#/J	[8e#\	.
4G##/	2C#\_	4.b#/	4e#\]	.
[4A#/	.	.	[4f#\	.
.	.	8cc#/	.	.
=29	=29	=29	=29	=29
&(8A#/L]&	4.C#\]	(8cc#/L	4.f#\]	<
(8G##/	.	8b#/	.	.
8A#/	.	8cc#/	.	.
8c#/J	[8C#\	8ee#/J	[8f#\	.
4A#/	2C#\_	4.cc##/	4f#\]	.
[4B/	.	.	[4f##\	.
.	.	8dd#/	.	.
=30	=30	=30	=30	=30
8B/L]	4C#\]	8dd#/L	4f##\]	.
(8A#/	.	8cc##/	.	.
8B/	2.C#\	8dd#/	4g#\	.
8d#/J	.	8ff#/J	.	.
8f#\L	.	2r	8b\ 8aa#\L	>
8d#\	.	.	8g#\ 8ff#\	.
8B\	.	.	8f#\ 8dd#\	.
8d#\J	.	.	8g#\ 8ff#\J	.
*v	*v	*	*	*
*	*v	*v	*
=31	=31	=31
8f#\L	8b\ 8aa#\L	.
8d#\	8g#\ 8ff#\	.
8B\	8f#\ 8dd#\	.
8d#\J	8g#\ 8ff#\J	.
6f#\	6b\ 6aa#\	.
6d#\	6g#\ 6ff#\	.
6B\	6f#/ &(6dd#/&	.
=32	=32	=32
*	*^	*
4d#'\	4g#'\ (4ff#'\	2r	.
&(4B'\&	4f#'/ 4dd#'/	.	.
20G#\LL	(20b/LL	4d#\	.
20A#\	20cc#/	.	.
20G#\	20b/	.	.
20F##\	20a#/	.	.
20G#\JJ	20b/JJ	.	.
4C#\ 4B\	4e#/ 4g#/ 4dd#/	4r	.
*	*v	*v	*
=33	=33	=33
[1F# [1d#	[1e# [1g##	.
=34	=34	=34
*^	*	*
4d#/]	2F#\]	4e#/] 4g##/]	.
&(4c#/&	.	4f#/ 4a#/	.
2r	2r	2r	.
*v	*v	*	*
=35	=35	=35
2r	1r	.
4r	.	.
8r	.	.
8FFFn/	.	.
=36	=36	=36
*MM144	*MM144	*MM144
*k[b-e-a-d-g-]	*k[b-e-a-d-g-]	*k[b-e-a-d-g-]
*M6/4	*M6/4	*M6/4
12BBB-/L	1.r	.
12CC-/	.	.
12CCn/	.	.
12DD-/	.	.
12DDn/	.	.
12EE-/	.	.
12EEn/	.	.
12FF/	.	.
12GG-/J	.	.
12FF/L	.	.
12EEn/	.	.
12EE-/	.	.
12DDn/	.	.
12DD-/	.	.
12CCn/	.	.
12CC-/	.	.
12BBB-/	.	.
12FFF/J	.	.
=37	=37	=37
12BBB-/L	1.r	.
12CC-/	.	.
12CCn/	.	.
12DD-/	.	.
12DDn/	.	.
12EE-/	.	.
12EEn/	.	.
12FF/	.	.
12GG-/J	.	.
12FF/L	.	.
12EEn/	.	.
12EE-/	.	.
12DDn/	.	.
12DD-/	.	.
12CCn/	.	.
12CC-/	.	.
12BBB-/	.	.
12FFF/J	.	.
*	*clefF4	*clefF4
=38	=38	=38
*	*^	*
12BBB-/L	1.F	4r	.
12CC-/	.	.	.
12CCn/	.	.	.
12DD-/	.	4r	.
12DDn/	.	.	.
12EE-/	.	.	.
12EEn/	.	[4BB-\ [4D-\	.
12FF/	.	.	.
12GG-/J	.	.	.
12FF/L	.	2BB-\] 2D-\]	.
12EEn/	.	.	.
12EE-/	.	.	.
12DDn/	.	.	.
12DD-/	.	.	.
12CCn/	.	.	.
12CC-/	.	4BB-\ 4D-\	.
12BBB-/	.	.	.
12FFF/J	.	.	.
=39	=39	=39	=39
12BBB-/L	2.G-/	4r	.
12CC-/	.	.	.
12CCn/	.	.	.
12DD-/	.	4r	.
12DDn/	.	.	.
12EE-/	.	.	.
12EEn/	.	[4BB-\ [4D-\	.
12FF/	.	.	.
12GG-/J	.	.	.
12FF/L	2.A-/	2BB-\] 2D-\]	.
12EEn/	.	.	.
12EE-/	.	.	.
12DDn/	.	.	.
12DD-/	.	.	.
12CCn/	.	.	.
12CC-/	.	4BB-\ 4D-\	.
12BBB-/	.	.	.
12FFF/J	.	.	.
=40	=40	=40	=40
12BBB-/L	[1.B-	4r	.
12CC-/	.	.	.
12CCn/	.	.	.
12DD-/	.	4r	.
12DDn/	.	.	.
12EE-/	.	.	.
12EEn/	.	[4BB-\ [4D-\	.
12FF/	.	.	.
12GG-/J	.	.	.
12FF/L	.	2BB-\] 2D-\]	.
12EEn/	.	.	.
12EE-/	.	.	.
12DDn/	.	.	.
12DD-/	.	.	.
12CCn/	.	.	.
12CC-/	.	4BB-\ 4D-\	.
12BBB-/	.	.	.
12FFF/J	.	.	.
=41	=41	=41	=41
12BBB-/L	2B-/]	4r	.
12CC-/	.	.	.
12CCn/	.	.	.
12DD-/	.	4r	.
12DDn/	.	.	.
12EE-/	.	.	.
12EEn/	(4F/	[4BB-\ [4D-\	.
12FF/	.	.	.
12GG-/J	.	.	.
12FF/L	2A-/	2BB-\] 2D-\]	.
12EEn/	.	.	.
12EE-/	.	.	.
12DDn/	.	.	.
12DD-/	.	.	.
12CCn/	.	.	.
12CC-/	4G-/	4BB-\ 4D-\	.
12BBB-/	.	.	.
12FFF/J	.	.	.
=42	=42	=42	=42
12BBB-/L	(1.G-	4r	.
12CC-/	.	.	.
12CCn/	.	.	.
12DD-/	.	4r	.
12DDn/	.	.	.
12EE-/	.	.	.
12EEn/	.	[4BB-\ [4D-\	.
12FF/	.	.	.
12GG-/J	.	.	.
12FF/L	.	2BB-\] 2D-\]	.
12EEn/	.	.	.
12EE-/	.	.	.
12DDn/	.	.	.
12DD-/	.	.	.
12CCn/	.	.	.
12CC-/	.	4BB-\ 4D-\	.
12BBB-/	.	.	.
12FFF/J	.	.	.
=43	=43	=43	=43
12BBB-/L	2.F/	4r	.
12CC-/	.	.	.
12CCn/	.	.	.
12DD-/	.	4r	.
12DDn/	.	.	.
12EE-/	.	.	.
12EEn/	.	[4BB-\ [4D-\	.
12FF/	.	.	.
12GG-/J	.	.	.
12FF/L	2.r	2BB-\] 2D-\]	.
12EEn/	.	.	.
12EE-/	.	.	.
12DDn/	.	.	.
12DD-/	.	.	.
12CCn/	.	.	.
12CC-/	.	4BB-\ 4D-\	.
12BBB-/	.	.	.
12FFF/J	.	.	.
=44	=44	=44	=44
12BBB-/L	1.C	4r	.
12CC-/	.	.	.
12CCn/	.	.	.
12DD-/	.	4r	.
12DDn/	.	.	.
12EE-/	.	.	.
12EEn/	.	[4GG-\ [4BB-\	.
12FF/	.	.	.
12EE/J	.	.	.
12EE-/L	.	2GG-\] 2BB-\]	.
12DDn/	.	.	.
12DD-/	.	.	.
12CCn/	.	.	.
12CC-/	.	.	.
12BBB-/	.	.	.
12GGG-/	.	4GG-\ 4BB-\	.
12AAA-/	.	.	.
12AAAn/J	.	.	.
=45	=45	=45	=45
12BBB-/L	2.D-/	4r	.
12CC-/	.	.	.
12CCn/	.	.	.
12DD-/	.	4r	.
12DDn/	.	.	.
12EE-/	.	.	.
12EEn/	.	[4GG-\ [4BB-\	.
12FF/	.	.	.
12EE/J	.	.	.
12EE-/L	2.E-/	2GG-\] 2BB-\]	.
12DDn/	.	.	.
12DD-/	.	.	.
12CCn/	.	.	.
12CC-/	.	.	.
12BBB-/	.	.	.
12GGG-/	.	4GG-\ 4BB-\	.
12AAA-/	.	.	.
12AAAn/J	.	.	.
=46	=46	=46	=46
12BBB-/L	[1.F	4r	.
12CC-/	.	.	.
12CCn/	.	.	.
12DD-/	.	4r	.
12DDn/	.	.	.
12EE-/	.	.	.
12EEn/	.	[4BB-\ [4D-\	.
12FF/	.	.	.
12GG-/J	.	.	.
12FF/L	.	2BB-\] 2D-\]	.
12EEn/	.	.	.
12EE-/	.	.	.
12DDn/	.	.	.
12DD-/	.	.	.
12CCn/	.	.	.
12CC-/	.	4BB-\ 4D-\	.
12BBB-/	.	.	.
12FFF/J	.	.	.
=47	=47	=47	=47
12BBB-/L	2.F/]	4r	.
12CC-/	.	.	.
12CCn/	.	.	.
12DD-/	.	4r	.
12DDn/	.	.	.
12EE-/	.	.	.
12EEn/	.	[4BB-\ [4D-\	.
12FF/	.	.	.
12GG-/J	.	.	.
12FF/L	2A-/	2BB-\] 2D-\]	.
12EEn/	.	.	.
12EE-/	.	.	.
12DDn/	.	.	.
12DD-/	.	.	.
12CCn/	.	.	.
12CC-/	4G-/	4BB-\ 4D-\	.
12BBB-/	.	.	.
12FFF/J	.	.	.
=48	=48	=48	=48
12BBB-/L	1.C	4r	.
12CC-/	.	.	.
12CCn/	.	.	.
12DD-/	.	4r	.
12DDn/	.	.	.
12EE-/	.	.	.
12EEn/	.	[4GG-\ [4BB-\	.
12FF/	.	.	.
12EE/J	.	.	.
12EE-/L	.	2GG-\] 2BB-\]	.
12DDn/	.	.	.
12DD-/	.	.	.
12CCn/	.	.	.
12CC-/	.	.	.
12BBB-/	.	.	.
12GGG-/	.	4GG-\ 4BB-\	.
12AAA-/	.	.	.
12AAAn/J	.	.	.
=49	=49	=49	=49
12BBB-/L	2.D-/	4r	.
12CC-/	.	.	.
12CCn/	.	.	.
12DD-/	.	4r	.
12DDn/	.	.	.
12EE-/	.	.	.
12EEn/	.	[4GG-\ [4BB-\	.
12FF/	.	.	.
12EE/J	.	.	.
12EE-/L	2.E-/	2GG-\] 2BB-\]	.
12DDn/	.	.	.
12DD-/	.	.	.
12CCn/	.	.	.
12CC-/	.	.	.
12BBB-/	.	.	.
12GGG-/	.	4GG-\ 4BB-\	.
12AAA-/	.	.	.
12AAAn/J	.	.	.
=50	=50	=50	=50
12BBB-/L	1.F	4r	.
12CC-/	.	.	.
12CCn/	.	.	.
12DD-/	.	4r	.
12DDn/	.	.	.
12EE-/	.	.	.
12EEn/	.	[4BB-\ [4D-\	.
12FF/	.	.	.
12GG-/J	.	.	.
12FF/L	.	2BB-\] 2D-\]	.
12EEn/	.	.	.
12EE-/	.	.	.
12DDn/	.	.	.
12DD-/	.	.	.
12CCn/	.	.	.
12CC-/	.	4BB-\ 4D-\	.
12BBB-/	.	.	.
12AAAn/J	.	.	.
=51	=51	=51	=51
12AAA-/L	2.G-/	4r	.
12AAAn/	.	.	.
12BBB-/	.	.	.
12BBBn/	.	4r	.
12CC/	.	.	.
12DD-/	.	.	.
12DDn/	.	[4AA-\ [4C\	.
12EE-/	.	.	.
12EEn/J	.	.	.
12FF/L	2.A-/	2AA-\] 2C\]	.
12EEn/	.	.	.
12EE-/	.	.	.
12DDn/	.	.	.
12DD-/	.	.	.
12CCn/	.	.	.
16CC-/L	.	4AA-\ 4Cn\	.
16BBB-/	.	.	.
16AAA/	.	.	.
16AAA-/JJ	.	.	.
*	*v	*v	*
=52	=52	=52
(8GGG-/L	4r	.
8DD-/	.	.
8FF/	4D-\ 4F\ 4B-\	.
8BB-/J	.	.
12D-\L	4r	.
12F\J	.	.
12c/	.	.
([2.e-/	2.r	.
=53	=53	=53
8e-/L]	1.r	.
8d-/	.	.
8A-/	.	.
8c/	.	.
8B-/	.	.
8F/J	.	.
8A-/L	.	.
8G-/J	.	.
4D-/	.	.
4Dn/	.	.
=54	=54	=54
*met(C	*met(C	*met(C
*M4/4	*M4/4	*M4/4
8F/	1r	>
4E-/	.	.
(8BB-/	.	.
4D-/	.	.
[4C/	.	.
*	*clefG2	*clefG2
=55	=55	=55
*MM72	*MM72	*MM72
2C;/]	2r;	.
4r	4r	.
4FFF/ (4FF/	4An/ 4f/ 4cc/	.
=56	=56	=56
2GGG-/ 2GG-/	2B-/ 2f/ 2cc/	.
4AAA-/ 4AA-/	2B-/ 2e-/ 2cc/	.
4BBB-/ 4BB-/	.	.
=57	=57	=57
2.CC;/ 2.C;/	2.An;/ 2.f;/ 2.cc;/	.
(4F\ 4f\	4an\ 4ff\ 4ccc\	.
=58	=58	=58
*^	*	*
2r	2G-\ 2f\	2b-\ 2ff\ 2ccc\	.
2f/	4A-\	2b-\ 2ee-\ 2ccc\	.
.	4B-\	.	.
*v	*v	*	*
*clefG2	*	*
=59	=59	=59
*MM116	*MM116	*MM116
*^	*	*
[2f/	[1c	[2an\ [2ff\ [2aan\	.
8f/L]	.	8a\] 8ff\] 8aa\L]	.
8f/	.	8cc\ (8aa\	.
8an/	.	8ff\ 8ccc\	.
8ddn/J	.	8aa\ 8fff\J	.
=60	=60	=60	=60
*	*	*^	*
8b-/L	2..c\]	8dddn/L	4ff\	.
8gn/	.	8bb-/	.	.
8b-/	.	8ggn/	2ddn\	.
8f/J	.	8aan/J	.	.
8g/L	.	8bb-/L	.	.
8f#/	.	8aa/	.	.
8g/	.	8bb-/	8dd\L	.
8b-/J	[8c\	8ddd/J	8een\J	.
*	*	*v	*v	*
=61	=61	=61	=61
2g#/	2c\_	[2ff\ 2bbn\	.
&(8an/&	8c\]	8ff\] 8ccc\	.
8r	8r	8r	.
4r	4r	4r	.
*v	*v	*	*
*clefF4	*	*
=62	=62	=62
*	*^	*
8r	8r	8r	.
8c\L	(8an/L	4f\	.
8An\	8cc/	.	.
8dn\J	8ff/J	8a\	.
8B-\L	8ddn/L	4f\	.
8Gn\	8b-/	.	.
8B-\	8gn/	[4dn\	.
8F\J	8a/J	.	.
=63	=63	=63	=63
*^	*	*	*
2r	8Gn\L	8b-/L	4.d\]	.
.	8F#\	8an/	.	.
.	8G\	8b-/	.	.
.	[8C\ 8B-\J	8ddn/J	[8en\	.
4G#/	2C\_	4.bn/	4e\]	.
[4An/	.	.	[4f\	.
.	.	8cc/	.	.
=64	=64	=64	=64	=64
&(8A/L]&	4.C\]	(8cc/L	4.f\]	<
(8G#/	.	8bn/	.	.
8An/	.	8cc/	.	.
8c/J	[8C\	8een/J	[8f\	.
4A/	2C\_	4.cc#/	4f\]	.
[4B-/	.	.	[4f#\	.
.	.	8ddn/	.	.
=65	=65	=65	=65	=65
8B-/L]	4C\]	8ddn/L	4f#\]	.
(8An/	.	8cc#/	.	.
8B-/	2.C\	8dd/	4gn\	.
8dn/J	.	8ff/J	.	.
8f\L	.	2r	8b-\ 8aan\L	.
8d\	.	.	8g\ 8ff\	.
8B-\	.	.	8fn\ 8dd\	.
8d\J	.	.	8g\ 8ff\J	.
*v	*v	*	*	*
*	*v	*v	*
=66	=66	=66
8f\L	8b-\ 8aan\L	.
8dn\	8gn\ 8ff\	.
8B-\	8f\ 8ddn\	.
8d\J	8g\ 8ff\J	.
6f\	6b-\ 6aa\	.
6d\	6g\ 6ff\	.
6B-\	6f/ &(6dd/&	.
=67	=67	=67
*	*^	*
4dn'\	4gn'\ (4ff'\	2r	.
&(4B-'\&	4f'/ 4ddn'/	.	.
20Gn\LL	(20b-/LL	4dn\	.
20An\	20cc/	.	.
20G\	20b-/	.	.
20F#\	20an/	.	.
20G\JJ	20b-/JJ	.	.
4C\ 4B-\	4en/ 4g/ 4dd/	4r	.
*	*v	*v	*
=68	=68	=68
[1F [1dn	[1en [1g#	.
=69	=69	=69
*^	*	*
4d/]	2F\]	4e/] 4g#/]	.
4c/	.	4f/ 4an/	.
2r	2r	2r	.
*v	*v	*	*
=70	=70	=70
*MM120	*MM120	*MM120
2r	1r	.
4r	.	.
8An''\ 8an''\	.	.
8r	.	.
=71	=71	=71
8An''\ 8an''\	1r	.
8r	.	.
8A'\ 8a'\	.	.
16r	.	.
16A'\ 16a'\	.	.
8A'\ 8a'\	.	.
8r	.	.
8A'\ 8a'\	.	.
8r	.	.
=72	=72	=72
*k[f#c#]	*k[f#c#]	*k[f#c#]
8BBB-''/ 8BB-''/	8a''\ 8dd''\ 8aa''\	mf
8r	8r	.
20C#\LL	20c#/LL	.
20D\	20d/	.
20E\	20e/	.
20Fn\	20fn/	.
20G#\JJ	20g#/JJ	.
8A''\	8a''/	.
8r	8r	.
12BBB-/ 12BB-/L	12a\ 12dd\ 12aa\L	<
12BBB-/ 12BB-/	12a\ 12dd\ 12aa\	.
12BBB-/ 12BB-/J	12a\ 12dd\ 12aa\J	.
=73	=73	=73
8AAA''/ 8AA''/	8ee''\ 8aa''\ 8ccc#''\ 8eee''\	.
8r	8r	.
8A'\ 8a'\	4r	.
16r	.	.
16A'\ 16a'\	.	.
8A'\ 8a'\	2r	.
8r	.	.
8A'\ 8a'\	.	.
8r	.	.
=74	=74	=74
8BBB-''/ 8BB-''/	8a''\ 8dd''\ 8aa''\	f
8r	8r	.
20C#\LL	20c#/LL	.
20D\	20d/	.
20E\	20e/	.
20Fn\	20fn/	.
20G#\JJ	20g#/JJ	.
8A''\	8a''/	.
8r	8r	.
12BBB-/ 12BB-/L	12a\ 12dd\ 12aa\L	.
12BBB-/ 12BB-/	12a\ 12dd\ 12aa\	.
12BBB-/ 12BB-/J	12a\ 12dd\ 12aa\J	.
=75	=75	=75
8AAA''/ 8AA''/	8ee''\ 8aa''\ 8ccc#''\ 8eee''\	.
8r	8r	.
8A'\ 8a'\	4r	.
16r	.	.
16A'\ 16a'\	.	.
8A'\ 8a'\	2r	.
8r	.	.
8A'\ 8a'\	.	.
8r	.	.
=76	=76	=76
8GGG''/ 8GG''/	8ee''\ 8bb-''\ 8ccc#''\ 8eee''\	.
8r	8r	.
24C#\LL	24c#/LL	.
24D\	24d/	.
24D#\	24d#/	.
24E\	24e/	.
24G\	24g/	.
24B-\JJ	24b-/JJ	.
8c#''\	8cc#''\	.
8r	8r	.
12GGG/ 12GG/L	12ee\ 12bb-\ 12ccc#\ 12eee\L	.
12GGG/ 12GG/	12ee\ 12bb-\ 12ccc#\ 12eee\	.
12GGG/ 12GG/J	12ee\ 12bb-\ 12ccc#\ 12eee\J	.
=77	=77	=77
8FFF#''/ 8FF#''/	8aa''\ 8cccn''\ 8eee-''\ 8aaa''\	.
8r	8r	.
8A'\ 8a'\	4r	.
16r	.	.
16A'\ 16a'\	.	.
8A'\ 8a'\	2r	.
8r	.	.
8A'\ 8a'\	.	.
8r	.	.
=78	=78	=78
8GGG''/ 8GG''/	8ee''\ 8bb-''\ 8ccc#''\ 8eee''\	.
8r	8r	.
24C#\LL	24c#/LL	.
24D\	24d/	.
24D#\	24d#/	.
24E\	24e/	.
24G\	24g/	.
24B-\JJ	24b-/JJ	.
8c#''\	8cc#''\	.
8r	8r	.
12GGG/ 12GG/L	12ee\ 12bb-\ 12ccc#\ 12eee\L	.
12GGG/ 12GG/	12ee\ 12bb-\ 12ccc#\ 12eee\	.
12GGG/ 12GG/J	12ee\ 12bb-\ 12ccc#\ 12eee\J	.
=79	=79	=79
8FFF#/ 8FF#/	8aa\ 8cccn\ 8eee-\ 8aaa\	.
8r	8r	.
8A'\ 8a'\	4r	.
16r	.	.
16A'\ 16a'\	.	.
8A'\ 8a'\	4r	.
8r	.	.
12FFF#/ 12FF#/L	12aa\ 12ccc\ 12eee-\ 12aaa\L	<
12FFF#/ 12FF#/	12aa\ 12ccc\ 12eee-\ 12aaa\	.
12FFF#/ 12FF#/J	12aa\ 12ccc\ 12eee-\ 12aaa\J	.
=80	=80	=80
8FFFn/ 8FFn/	8aa\ 8cccn\ 8eee-\ 8aaa\	.
8r	8r	.
8A'\ 8a'\	4r	.
16r	.	.
16A'\ 16a'\	.	.
8A'\ 8a'\	4r	.
8r	.	.
12FFF/ 12FF/L	12aa\ 12ccc\ 12eee-\ 12aaa\L	.
12FFF/ 12FF/	12aa\ 12ccc\ 12eee-\ 12aaa\	.
12FFF/ 12FF/J	12aa\ 12ccc\ 12eee-\ 12aaa\J	.
=81	=81	=81
8EEE''/ 8EE''/	8aa''\ 8cccn''\ 8eeen''\ 8aaa''\	.
8r	8r	.
8DDD#''/ 8DD#''/	8aa''\ 8ccc''\ 8fffn''\ 8aaa''\	.
8r	8r	.
8DDDn''/ 8DDn''/	8aa''\ 8ccc''\ 8fff#''\ 8aaa''\	.
8r	8r	.
8DD''/ 8D''/	8bb''\ 8fff#''\ 8bbb''\	.
8r	8r	.
=82	=82	=82
8CC#'/ 8C#'/	8ccc#'\ 8fff#'\ 8aaa'\ 8cccc#'\	.
8r	8r	.
*clefG2	*	*
2c#/ 2f#/ 2a/ 2dd/	20ddd\ 20dddd\LL	.
.	20bbb\	mf
.	20aaa\	.
.	20fff#\	.
.	20eee\JJ	.
.	20ddd\LL	.
.	20bb\	.
.	20aa\	.
.	20ff#\	.
.	20ee\JJ	.
4C#''/ 4F#''/ 4A''/ 4d''/	20dd/LL	.
.	20b/	.
.	20a/	.
.	20f#/	.
.	20e/JJ	.
*clefF4	*	*
=83	=83	=83
2C#\ 2E#\ 2G#\ 2B\ 2d\	24r	.
.	24e#/LL	<
.	24g#/	.
.	24b/	.
.	24dd/	.
.	24ee#/JJ	.
.	24ddd\LL	.
.	24bb\	.
.	24gg#\	.
.	24ee#\	.
.	24dd\	.
.	24b\JJ	.
4r	24g#/LL	.
.	24e#/	.
.	24d/	.
.	24B/	.
.	24G#/	.
.	24E/JJ	.
12CC#/ 12C#/L	4r	.
12CC#/ 12C#/	.	.
12CC#/ 12C#/J	.	.
=84	=84	=84
8CC#'/ 8C#'/	4r	.
8r	.	.
2C#\ 2F#\ 2A\ 2d\	20dd\ 20ddd\LL	.
.	20bb\	.
.	20aa\	.
.	20ff#\	.
.	20ee\JJ	.
.	20dd/LL	.
.	20b/	.
.	20a/	.
.	20f#/	.
.	20e/JJ	.
4CC#''/ 4FF#''/ 4AA''/ 4D''/	20d/LL	.
.	20B/	.
.	20A/	.
.	20F#/	.
.	20E/JJ	.
=85	=85	=85
2CC#/ 2EE#/ 2GG#/ 2BB/ 2D/	24r	.
.	24E#/LL	.
.	24G#/	.
.	24B/	.
.	24d/	.
.	24e#/JJ	.
.	24dd/LL	.
.	24b/	.
.	24g#/	.
.	24e#/	.
.	24d/	.
.	24B/JJ	.
*	*clefF4	*clefF4
4r	24G#/LL	.
.	24E/	.
.	24D/	.
.	24BB/	.
.	24GG#/	.
.	24EE#/JJ	.
12CC#'/L	4r	.
12CC#'/	.	.
12CC#'/J	.	.
=86	=86	=86
*^	*	*
12CC#'/L	2r	4r	.
12CC#'/	.	.	.
12CC#'/J	.	.	.
12CC#'/L	.	8r	.
12CC#'/	.	.	.
.	.	[8D'\	.
12CC#'/J	.	.	.
(12CC#'/L	2BBB^\	8D\]	.
12CC#'/	.	.	.
.	.	4A'\	.
12CC#'/J	.	.	.
12CC#'/L	.	.	.
12CC#'/	.	.	.
.	.	[8G#'\	.
12CC#'/J	.	.	.
=87	=87	=87	=87
12CC#'/L	2AAA^\	8G#\]	.
12CC#'/	.	.	.
.	.	4c#'\	.
12CC#'/J	.	.	.
12CC#'/L	.	.	.
12CC#'/	.	.	.
.	.	[8F#'\	.
12CC#'/J	.	.	.
12CC#'/L	2GGG#^\	8F#\]	.
12CC#'/	.	.	.
.	.	[4E#\ [4B\ 4e\	.
12CC#'/J	.	.	.
12CC#'/L	.	.	.
12CC#'/	.	.	.
.	.	8E#\] 8B\] 8d\	.
12CC#'/J	.	.	.
*	*	*clefG2	*clefG2
=88	=88	=88	=88
12CC#'/L	4r	4r	.
12CC#'/	.	.	.
12CC#'/J	.	.	.
12CC#'/L	2GGGn\	2d/ 2fn/ (2b/	.
12CC#'/	.	.	.
12CC#'/J	.	.	.
12CC#'/L	.	.	.
12CC#'/	.	.	.
12CC#'/J	.	.	.
12CC#'/L	4AAA\	4c#/ 4f/ 4a/	.
12CC#'/	.	.	.
12CC#'/J	.	.	.
*	*	*^	*
=89	=89	=89	=89	=89
12CC#'/L	1BBB	4B/ 4d/ 4g/	4r	.
12CC#'/	.	.	.	.
12CC#'/J	.	.	.	.
12CC#'/L	.	4f#/	2A\ [2d\	.
12CC#'/	.	.	.	.
12CC#'/J	.	.	.	.
12CC#'/L	.	2e#/	.	.
12CC#'/	.	.	.	.
12CC#'/J	.	.	.	.
12CC#'/L	.	.	4G#\ 4d\]	.
12CC#'/	.	.	.	.
12CC#'/J	.	.	.	.
*	*	*v	*v	*
=90	=90	=90	=90
12CC#'/L	4r	4r	.
12CC#'/	.	.	.
12CC#'/J	.	.	.
12CC#'/L	2GGG\	2d/ 2fn/ 2b/ (2dd/	.
12CC#'/	.	.	.
12CC#'/J	.	.	.
12CC#'/L	.	.	.
12CC#'/	.	.	.
12CC#'/J	.	.	.
12CC#'/L	4AAA\	4c#/ 4f/ 4a/	.
12CC#'/	.	.	.
12CC#'/J	.	.	.
*	*	*^	*
=91	=91	=91	=91	=91
12CC#'/L	1BBB	4B/ 4d/ 4g/	4r	.
12CC#'/	.	.	.	.
12CC#'/J	.	.	.	.
12CC#'/L	.	4f#/	2A\ [2d\	.
12CC#'/	.	.	.	.
12CC#'/J	.	.	.	.
12CC#'/L	.	2e#/	.	.
12CC#'/	.	.	.	.
12CC#'/J	.	.	.	.
12CC#'/L	.	.	4G#\ 4d\]	.
12CC#'/	.	.	.	.
12CC#'/J	.	.	.	.
*	*	*v	*v	*
=92	=92	=92	=92
8CC#'/L	4r	4r	.
8CC#'/	.	.	.
8CC#'/	4AAA#\	4Gn'/ 4c#'/ 4e'/	.
8CC#'/J	.	.	.
8CC#'/L	4r	4r	.
8CC#'/	.	.	.
8CC#'/	4BBB\	4F#'/ 4B'/ 4d#'/	.
8CC#'/J	.	.	.
=93	=93	=93	=93
4CC#/	4CC#\	4r	.
4CC#/	4BBB\	4F#'/ 4A'/ 4d'/	.
4CC#/	4CC#\	4F#'/ 4A'/	.
4DD/	4CC#\	4F#'/ 4B'/	.
*	*	*clefF4	*clefF4
=94	=94	=94	=94
*	*	*^	*
2r	2r	2r	2r	.
[2BB/	[2CC#\	([2G/	[2D\	.
=95	=95	=95	=95	=95
2BB/]	1CC#]	2G/]	1D]	.
2EE#/	.	2G#/	.	.
*v	*v	*	*	*
=96	=96	=96	=96
*MM144	*MM144	*MM144	*MM144
8FFF#/ 8CC#/ 8FF#/	16AA/LL	8AA\L	p
.	16A/	.	.
8r	16BB/	8BB\	.
.	16B/	.	.
4r	16BB#/	8BB#\	.
.	16B#/	.	.
.	16C#/	8C#\J	.
.	16c#/JJ	.	<
4r	16D/LL	8D\L	.
.	16d/	.	.
.	16E/	8E\	.
.	16e/	.	.
4FF#/ 4AA/ ([4D/	16E#/	8E#\	.
.	16e#/	.	.
.	16F#/	8F#\J	.
.	16f#/JJ	.	.
=97	=97	=97	=97
*^	*	*	*
2D/]	4BB\	16A/LL	8A\L	.
.	.	16a/	.	.
.	.	16G#/	8G#\	.
.	.	16g#/	.	.
.	4BB-\	16Gn/	8Gn\	.
.	.	16gn/	.	.
.	.	16F#/	8F#\J	.
.	.	16f#/JJ	.	.
*	*	*v	*v	*
*	*	*clefG2	*clefG2
*	*	*^	*
2E#/	4AA\	16d/LL	8d\L	>
.	.	16dd/	.	.
.	.	16c#/	8c#\	.
.	.	16cc#/	.	.
.	4GG#\	16B#/	8B#\	.
.	.	16b#/	.	.
.	.	16Bn/	8Bn\J	.
.	.	16bn/JJ	.	.
=98	=98	=98	=98	=98
8FF#'/ 8C#'/ 8F#'/	4r	16A/LL	8A\L	.
.	.	16a/	.	.
8r	.	16B/	8B\	.
.	.	16b/	.	.
4r	4r	16B#/	8B#\	.
.	.	16b#/	.	.
.	.	16c#/	8c#\J	.
.	.	16cc#/JJ	.	.
4r	4r	16d/LL	8d\L	.
.	.	16dd/	.	.
.	.	16e/	8e\	.
.	.	16ee/	.	.
4A/ [4d/	(4F#\	16e#/	8e#\	.
.	.	16ee#/	.	.
.	.	16f#/	8f#\J	.
.	.	16ff#/JJ	.	.
=99	=99	=99	=99	=99
2d/]	4B\	16a/LL	8a\L	.
.	.	16aa/	.	.
.	.	16g#/	8g#\	.
.	.	16gg#/	.	.
.	4B-\	16gn/	8gn\	.
.	.	16ggn/	.	.
.	.	16f#/	8f#\J	.
.	.	16ff#/JJ	.	.
[2e#/	4A\	16dd/LL	8dd\L	.
.	.	16ddd/	.	.
.	.	16cc#/	8cc#\	.
.	.	16ccc#/	.	.
.	4G#\	16b#/	8b#\	.
.	.	16bb#/	.	.
.	.	16bn/	8bn\J	.
.	.	16bbn/JJ	.	.
=100	=100	=100	=100	=100
4e#/]	2Gn\ 2c#\	16a#/LL	8a#\L	.
.	.	16aa#/	.	.
.	.	16b/	8b\	.
.	.	16bb/	.	.
&(4en/&	.	16b#/	8b#\	.
.	.	16bb#/	.	.
.	.	16cc#/	8cc#\J	.
.	.	16ccc#/JJ	.	.
4r	4r	16gg/LL	8gg\L	.
.	.	16ggg/	.	.
.	.	16ff#/	8ff#\	.
.	.	16fff#/	.	.
*v	*v	*	*	*
*clefG2	*	*	*
*^	*	*	*
(4g/	4A#\ 4c#\	16ffn/	8ffn\	.
.	.	16fffn/	.	.
.	.	16ee/	8ee\J	.
.	.	16eee/JJ	.	.
=101	=101	=101	=101	=101
4g/	2An\ 2cn\	16dd#/LL	8dd#\L	<
.	.	16ddd#/	.	.
.	.	16ee/	8ee\	.
.	.	16eee/	.	.
4f#/	.	16ee#/	8ee#\	.
.	.	16eee#/	.	.
.	.	16ff#/	8ff#\J	.
.	.	16fff#/JJ	.	.
4r	4r	16cccn/LL	8cccn\L	.
.	.	16ccccn/	.	.
.	.	16bb/	8bb\	.
.	.	16bbb/	.	.
4d#/ 4f#/ (4ccn/	4r	16bb-/	8bb-\	.
.	.	16bbb-/	.	.
.	.	16aa/	8aa\J	.
.	.	16aaa/JJ	.	.
=102	=102	=102	=102	=102
4dn/ 4f#/ 4b/	4r	8r	8r	.
.	.	16gg#/LL	8gg#\L	<
.	.	16ggg#/	.	.
2a/	(4c#\ 4e\	16aa/	8aa\	.
.	.	16aaa/	.	.
.	.	16ggn/	8ggn\J	.
.	.	16gggn/JJ	.	.
.	4cn\ 4e-\	8r	8r	.
.	.	16ff#/LL	8ff#\L	<
.	.	16fff#/	.	.
4a/	[4B\ [4d\	16gg/	8gg\	.
.	.	16ggg/	.	.
.	.	16ff#/	8ff#\J	.
.	.	16fff#/JJ	.	.
=103	=103	=103	=103	=103
4g#/	4B\] 4d\]	8r	8r	.
.	.	16ee#/LL	8ee#\L	<
.	.	16eee#/	.	.
&(2f#/&	(4A\ 4c#\	16ff#/	8ff#\	.
.	.	16fff#/	.	.
.	.	16ee#/	8ee#\J	.
.	.	16eee#/JJ	.	.
.	4G#\ 4B\	16een/LL	8een\L	.
.	.	16eeen/	.	.
.	.	16dd/	8dd\	.
.	.	16ddd/	.	.
4r	4d\ 4f#\	16cc#/	8cc#\	.
.	.	16ccc#/	.	.
.	.	16b/	8b\J	.
.	.	16bb/JJ	.	.
*v	*v	*	*	*
*	*v	*v	*
=104	=104	=104
4c#\ 4f#\	16a/LL	.
.	16aa/	.
.	16g#/	.
.	16gg#/	.
4r	16f#/	.
.	16ff#/	.
.	16e#/	.
.	16ee#/JJ	.
*clefF4	*	*
4C#\ 4E#\ 4G#\ 4B\	16en/LL	>
.	16een/	.
.	16d#/	.
.	16dd#/	.
4r	16dn/	.
.	16ddn/	.
.	16c#/	.
.	16cc#/JJ	.
=105	=105	=105
*^	*^	*
16AAA/LL	8AAA\L	4r	4r	.
16AA/	.	.	.	.
16BBB/	8BBB\	.	.	.
16BB/	.	.	.	.
16BBB#/	8BBB#\	4c#/ 4f#/ (4cc#/	4r	.
16BB#/	.	.	.	.
16CC#/	8CC#\J	.	.	.
16C#/JJ	.	.	.	.
16DD/LL	8DD\L	4b^/	4.c#\ [4.f#\	.
16D/	.	.	.	.
16EE/	8EE\	.	.	.
16E/	.	.	.	.
16EE#/	8EE#\	4a/	.	.
16E#/	.	.	.	.
16FF#/	8FF#\J	.	&(8d\& 8f#\]	.
16F#/JJ	.	.	.	.
=106	=106	=106	=106	=106
16AA/LL	8AA\L	2d/ 2dd/	(4b\	<
16A/	.	.	.	.
16GG#/	8GG#\	.	.	.
16G#/	.	.	.	.
16GGn/	8GGn\	.	4b-\	.
16Gn/	.	.	.	.
16FF#/	8FF#\J	.	.	.
16F#/JJ	.	.	.	.
16D/LL	8D\L	[4e#^/ 4a^/	2r	.
16d/	.	.	.	.
16C#/	8C#\	.	.	.
16c#/	.	.	.	.
16BB#/	8BB#\	8e#/] 8g#/	.	.
16B#/	.	.	.	.
16BBn/	8BBn\J	8r	.	.
16Bn/JJ	.	.	.	.
=107	=107	=107	=107	=107
16AA/LL	8AA\L	4bb^/	4r	.
16A/	.	.	.	.
16BB/	8BB\	.	.	.
16B/	.	.	.	.
16BB#/	8BB#\	2ff#/	4cc#\ 4ff#\ (4ccc#\	.
16B#/	.	.	.	.
16C#/	8C#\J	.	.	.
16c#/JJ	.	.	.	.
16D/LL	8D\L	.	4.cc#\	.
16d/	.	.	.	.
16E/	8E\	.	.	.
16e/	.	.	.	.
16E#/	8E#\	4aa/	.	.
16e#/	.	.	.	.
16F#/	8F#\J	.	&(8dd\&	.
16f#/JJ	.	.	.	.
=108	=108	=108	=108	=108
16A/LL	8A\L	2dd/ (2ddd/	4bb\	.
16a/	.	.	.	.
16G#/	8G#\	.	.	.
16g#/	.	.	.	.
16Gn/	8Gn\	.	4bb-\	.
16gn/	.	.	.	.
16F#/	8F#\J	.	.	.
16f#/JJ	.	.	.	.
*v	*v	*	*	*
*clefG2	*	*	*
*^	*	*	*
16d/LL	8d\L	2r	[4ee#^\ 4aa^\	.
16dd/	.	.	.	.
16c#/	8c#\	.	.	.
16cc#/	.	.	.	.
16B#/	8B#\	.	8ee#\] 8gg#\	.
16b#/	.	.	.	.
16Bn/	8Bn\J	.	8r	.
16bn/JJ	.	.	.	.
=109	=109	=109	=109	=109
*	*	*8va	*8va	*
16A#/LL	8A#\L	4r	4r	.
16a#/	.	.	.	.
16B/	8B\	.	.	.
16b/	.	.	.	.
16B#/	8B#\	4ccc#/	4ee\ 4gg\ 4eee\	.
16b#/	.	.	.	.
16c#/	8c#\J	.	.	.
16cc#/JJ	.	.	.	.
*v	*v	*	*	*
*clefF4	*	*	*
*^	*	*	*
16G/LL	8G\L	(4ccc#^/	4ee\ 4gg\ 4eee\	.
16g/	.	.	.	.
16F#/	8F#\	.	.	.
16f#/	.	.	.	.
16Fn/	8Fn\	4r	8bb'\	.
16fn/	.	.	.	.
16E/	8E\J	.	8r	.
16e/JJ	.	.	.	.
=110	=110	=110	=110	=110
16D#/LL	8D#\L	4r	4r	.
16d#/	.	.	.	.
16E/	8E\	.	.	.
16e/	.	.	.	.
16E#/	8E\	4fff#/	4aa\ 4cccn\ 4aaa\	.
16e#/	.	.	.	.
16F#/	8F#\J	.	.	.
16f#/JJ	.	.	.	.
16Cn/LL	8Cn\L	4fffn/	4aa^\ 4ccc^\ (4aaa^\	.
16cn/	.	.	.	.
16BB/	8BB\	.	.	.
16B/	.	.	.	.
16BB-/	8BB-\	4r	8eee'\	.
16B-/	.	.	.	.
16AA/	8AA\J	.	8r	.
16A/JJ	.	.	.	.
*	*	*v	*v	*
=111	=111	=111	=111
16GG/LL	8GG\L	4r	.
16G#/	.	.	.
16AA/	8AA\	.	.
16A/	.	.	.
16AA#/	8AA#\	4gg#^\ 4ddd^\ 4fffn^\ 4ggg#^\	.
16A#/	.	.	.
16BB/	8BB\J	.	.
16B/JJ	.	.	.
16AAn/LL	8AAn\L	4aa^\ 4ddd^\ 4fff^\ 4aaa^\	.
16An/	.	.	.
16GG/	8GG\	.	.
16G#/	.	.	.
16GGn/	8GGn\	4bb-^\ 4ddd^\ 4fff^\ 4bbb-^\	.
16Gn/	.	.	.
16FF#/	8FF#\J	.	.
16F#/JJ	.	.	.
=112	=112	=112	=112
16EE#/LL	8EE#\L	4bb^\ 4ddd^\ 4ggg#^\ 4bbb^\	.
16E#/	.	.	.
16EEn/	8EEn\	.	.
16En/	.	.	.
16DD#/	8DD#\	4bb#^\ 4eee^\ 4ggg#^\ 4bbb#^\	.
16D#/	.	.	.
16DDn/	8DDn\J	.	.
16Dn/JJ	.	.	.
16CC#/LL	8CC#\L	4..ccc#^\ 4..eee^\ 4..ggg#^\ 4..cccc#^\	.
16C#/	.	.	.
16BBB/	8BBB\	.	.
16BB/	.	.	.
16AAA/	8AAA\	.	.
16AA/	.	.	.
16GGG#/	8GGG#\J	.	.
*	*	*X8va	*
*	*	*clefF4	*
16GG#/JJ	.	16C#\ 16c#\	.
*v	*v	*	*
=113	=113	=113
*	*^	*
8FFF#'/ 8CC#'/ 8FF#'/	2C#/ 2c#/	16C#\LL	ff
.	.	16F#\	.
8r	.	16c#\	.
.	.	16c#\JJ	.
*	*clefG2	*clefG2	*
8.r	.	16f#\LL	.
.	.	16cc#\	.
.	.	16cc#\	.
16C#\ 16F#\ 16c#\	.	16ff#\JJ	.
8C#'\ 8F#'\ 8c#'\	16ccc#\LL	2r	.
.	16ccc#\	.	.
8r	16fff#\	.	.
.	16cccc#\JJ	.	.
8r	4r	.	.
(16EEE#/LL	.	.	.
16EE#/JJ	.	.	.
*	*v	*v	*
*	*clefF4	*clefF4
=114	=114	=114
*^	*	*
16FFF#/LL	8FFF#\L	2D^\ 2F#^\ 2A^\ 2d^\	<
16FF#/	.	.	.
16GGG/	8GGG\	.	.
16GG/	.	.	.
16GGG#/	8GGG#\	.	.
16GG#/	.	.	.
16AAA/	8AAA\J	.	.
16AA/JJ	.	.	.
16AAA#/LL	8AAA#\L	2E^\ 2c#^\ 2e^\	.
16AA#/	.	.	.
16BBB/	8BBB\	.	.
16BB/	.	.	.
16BBB#/	8BBB#\	.	.
16BB#/	.	.	.
16CC#/	8CC#\J	.	.
16C#/JJ	.	.	.
*v	*v	*	*
=115	=115	=115
*	*^	*
8FFF#'/ 8CC#'/ 8FF#'/	2F#/ 2f#/	16F#\LL	ff
.	.	16c#\	.
8r	.	16f#\	.
.	.	16f#\JJ	.
*	*clefG2	*clefG2	*clefG2
8.r	.	16cc#\LL	.
.	.	16ff#\	.
.	.	16ff#\	.
16F#\ 16c#\ 16f#\LK	.	16ccc#\JJ	.
8F#'\ 8c#'\ 8f#'\J	2r	16fff#\LL	.
.	.	16fff#\	.
8r	.	16cccc#\	.
.	.	16eeee\JJ	.
8r	.	4r	.
(16EEE#/LL	.	.	.
16EE#/JJ	.	.	.
*	*v	*v	*
*	*clefF4	*clefF4
=116	=116	=116
*^	*	*
16FFF#/LL	8FFF#\L	4r	<
16FF#/	.	.	.
16GGG/	8GGG\	.	.
16GG/	.	.	.
16GGG#/	8GGG#\	4C#\ 4F#\ 4c#\	.
16GG#/	.	.	.
16AAA/	8AAA\J	.	.
16AA/JJ	.	.	.
16AAA#/LL	8AAA#\L	4..E\ 4..F#\ 4..e\	.
16AA#/	.	.	.
16BBB/	8BBB\	.	.
16BB/	.	.	.
16BBB#/	8BBB#\	.	.
16BB#/	.	.	.
16CC#/	8CC#\J	.	.
16C#/JJ	.	16D\ 16d\	.
*v	*v	*	*
=117	=117	=117
*	*^	*
8FFF#'/ 8DD'/ 8FF#'/	16D\LL	1D 1d	.
.	16F#\	.	.
8r	16d\	.	.
.	16d\JJ	.	.
*	*clefG2	*clefG2	*
8.r	16f#\LL	.	.
.	16dd\	.	.
.	16dd\	.	.
16D\ 16F#\ 16d\LK	16ff#\JJ	.	.
8D'\ 8F#'\ 8d'\J	16ddd\LL	.	.
.	16ddd\	.	.
8r	16fff#\	.	.
.	16dddd\JJ	.	.
8.r	16cccc#\LL	.	.
.	16fff#\	.	.
.	16ddd\	.	.
16C#\ 16F#\ 16c#\	16ccc#\JJ	.	.
*	*v	*v	*
=118	=118	=118
8C#'\ 8F#'\ 8c#'\	16ff#\LL	.
.	16dd\	.
8r	16cc#\	.
.	16f#\JJ	.
*	*clefF4	*clefF4
4r	16d\LL	.
.	16c#\	.
.	16F#\	.
.	16D\JJ	.
4r	16C#\LL	.
.	16FF#\	.
.	16DD\	.
.	16CC#\JJ	.
8FFF#'/	4r	.
8r	.	.
*	*clefG2	*clefG2
=119	=119	=119
8BBB''/ 8FF#''/ 8BB''/	8G#/ 8d/ 8g#/	.
16r	16r	.
16BB\ 16F#\ 16G#\LK	16g#\ 16dd\ 16gg#\LK	.
8BB''\ 8F#''\ 8G#''\J	8g#''\ 8dd''\ 8gg#''\J	.
16r	16r	.
16B\ 16f#\ 16g#\LK	16gg#\ 16ddd\ 16ggg#\LK	.
8B''\ 8f#''\ 8g#''\J	8gg#''\ 8ddd''\ 8ggg#''\J	.
8r	8r	.
8r	4r	.
16AAA#/LL	.	.
16AA#/JJ	.	.
=120	=120	=120
*^	*	*
16BBB/LL	8BBB\L	2A/ 2d/ 2f#/ 2a/	.
16BB/	.	.	.
16BBB#/	8BBB#\	.	.
16BB#/	.	.	.
16CC#/	8CC#\	.	.
16C#/	.	.	.
16DD/	8DD\J	.	.
16D/JJ	.	.	.
16DD#/LL	8DD#\L	2B/ 2d/ 2f#/ 2b/	.
16D#/	.	.	.
16EE/	8EE\	.	.
16E/	.	.	.
16EE#/	8EE#\	.	.
16E#/	.	.	.
16FF#/	8FF#\J	.	.
16F#/JJ	.	.	.
*v	*v	*	*
=121	=121	=121
8AAA'/ 8FF#'/ 8AA'/	8c#'/ 8f#'/ 8cc#'/	.
16r	16r	.
16C#\ 16F#\ 16A\ 16c#\LK	16cc#\ 16ff#\ 16ccc#\LK	.
8C#''\ 8F#''\ 8A''\ 8c#''\J	8cc#''\ 8ff#''\ 8ccc#''\J	.
16r	16r	.
*clefG2	*	*
16c#/ 16f#/ 16a/ 16cc#/LK	16ccc#\ 16fff#\ 16cccc#\LK	.
8c#''/ 8f#''/ 8a''/ 8cc#''/J	8ccc#''\ 8fff#''\ 8cccc#''\J	.
8r	8r	.
8r	4r	.
*clefF4	*	*
(16FF#/LL	.	.
16F#/JJ	.	.
=122	=122	=122
*^	*	*
16EE#/LL	8EE#\L	4r	.
16E#/	.	.	.
16EEn/	8EEn\	.	.
16En/	.	.	.
16DD#/	8DD#\	4c#^/ 4f#^/ 4a^/ 4cc#^/	.
16D#/	.	.	.
16DDn/	8DDn\J	.	.
16Dn/JJ	.	.	.
16CC#/LL	8CC#\L	4.e/ 4.f#/ 4.a/ 4.ee/	.
16C#/	.	.	.
16BBB#/	8BBB#\	.	.
16BB#/	.	.	.
16BBBn/	8BBBn\	.	.
16BBn/	.	.	.
16AAA#/	8AAA#\J	&(8d/& 8dd/	.
16AA#/JJ	.	.	.
*v	*v	*	*
=123	=123	=123
8BBB''/ 8FF#''/ 8BB''/	8G#/ 8d/ 8g#/	ff
16r	16r	.
16BB\ 16F#\ 16G#\LK	16g#\ 16dd\ 16gg#\LK	.
8BB''\ 8F#''\ 8G#''\J	8g#''\ 8dd''\ 8gg#''\J	.
16r	16r	.
16B\ 16f#\ 16g#\LK	16gg#\ 16ddd\ 16ggg#\LK	.
8B''\ 8f#''\ 8g#''\J	8gg#''\ 8ddd''\ 8ggg#''\J	.
8r	8r	.
8r	4r	.
16AAA#/LL	.	.
16AA#/JJ	.	.
=124	=124	=124
*^	*	*
16BBB/LL	8BBB\L	2A/ 2d/ 2f#/ 2a/	.
16BB/	.	.	.
16BBB#/	8BBB#\	.	.
16BB#/	.	.	.
16CC#/	8CC#\	.	.
16C#/	.	.	.
16DD/	8DD\J	.	.
16D/JJ	.	.	.
16DD#/LL	8DD#\L	2B/ 2d/ 2f#/ 2b/	.
16D#/	.	.	.
16EE/	8EE\	.	.
16E/	.	.	.
16EE#/	8EE#\	.	.
16E#/	.	.	.
16FF#/	8FF#\J	.	.
16F#/JJ	.	.	.
*v	*v	*	*
=125	=125	=125
8AAA'/ 8AA'/	8c#'/ 8f#'/ 8cc#'/	.
16r	16r	.
16C#\ 16F#\ 16A\ 16c#\LK	16cc#\ 16ff#\ 16ccc#\LK	.
8C#''\ 8F#''\ 8A''\ 8c#''\J	8cc#''\ 8ff#''\ 8ccc#''\J	.
16r	16r	.
*clefG2	*	*
16c#/ 16f#/ 16a/ 16cc#/LK	16ccc#\ 16fff#\ 16cccc#\LK	.
8c#''/ 8f#''/ 8a''/ 8cc#''/J	8ccc#''\ 8fff#''\ 8cccc#''\J	.
8r	8r	.
8.r	8.r	.
*clefF4	*clefF4	*clefF4
16AAA/ 16AA/	16C#\ 16F#\ 16c#\	.
=126	=126	=126
8GGG#'/ 8GG#'/	8C#'\ 8E#'\ 8B'\ 8c#'\	.
16r	16r	.
*	*clefG2	*clefG2
16E#\ 16B\ 16c#\LK	16cc#\ 16ee#\ 16ccc#\LK	.
8E#'\ 8B'\ 8c#'\J	8cc#'\ 8ee#'\ 8ccc#'\J	.
16r	16r	.
*clefG2	*	*
16e#/ 16b/ 16cc#/LK	16ccc#\ 16eee#\ 16cccc#\LK	.
8e#'/ 8b'/ 8cc#'/J	8ccc#'\ 8eee#'\ 8cccc#'\J	.
8r	8r	.
8.r	8.r	.
*clefF4	*clefF4	*clefF4
16GGG/ 16GG/	16E\ 16B\ 16c#\	.
=127	=127	=127
8GGGn'/ 8GGn'/	8Fn\ 8B-\ 8d-\	.
8r	8r	.
4r	8.r	.
*	*clefG2	*clefG2
.	16fn/ 16b-/ 16dd-/LK	.
4r	8f/ 8b-/ 8dd-/J	.
.	16r	.
.	16ffn\ 16bb-\ 16ddd-\LK	.
4r	8ff\ 8bb-\ 8ddd-\J	.
.	16r	.
.	16fffn\ 16bbb-\ 16dddd-\	.
=128	=128	=128
4r	8fffn\ 8bbb-\ 8dddd-\	.
.	16r	.
.	16ffn\ 16bb-\ 16ddd-\LK	.
4r	8ff\ 8bb-\ 8ddd-\J	.
.	16r	.
.	16fn/ 16b-/ 16dd-/LK	.
8r	8f/ 8b-/ 8dd-/J	.
16r	4r	.
16Fn\ 16B-\ 16d-\LK	.	.
8F\ 8B-\ 8d-\J	.	.
16r	8r	.
16GG\	.	.
=129	=129	=129
*^	*	*
4r	2.GG\	4r	.
2Fn/ 2B-/	.	2d-/ 2fn/ 2dd-/	.
[4GG/ [4E/ [4B-/	4r	[4d-/ [4e/ [4dd-/	.
*v	*v	*	*
=130	=130	=130
4GG\] 4E\] 4B-\]	4d-/] 4e/] 4dd-/]	.
4GG'\ 4E-'\ (4B-'\	(4d-'/ 4e-'/ 4dd-'/	.
4GG'\ 4E-'\ 4B-'\	4d-'/ 4e-'/ 4dd-'/	.
4AA'\ 4F#'\	4d-'/ 4e-'/ 4ccn'/	.
=131	=131	=131
1D- 1G 1B- 1e-	(4.a/	.
.	[8b-/	.
.	2b-/] [2ffn/	.
=132	=132	=132
1r	4ff\]	.
.	4ee-\	.
.	4.dd-\	.
.	8ccn\	.
=133	=133	=133
2r	(2ccn\	.
2D-\ 2G\	2B-/ 2e-/ [2b-/	.
=134	=134	=134
*	*^	*
1GG 1En 1A	4b-/]	1c# 1en	.
.	4a/	.	.
.	8cc#/	.	.
.	4bn/	.	.
.	8a/	.	.
*	*v	*v	*
=135	=135	=135
8FF#/ 8B/	(4.a/	p
16F#/LL	.	.
16A/	.	.
16d/	.	.
[16f#/J	.	.
8f#/J]	24b/LL	.
.	24a/	.
.	24g#/JJ	.
2r	8a/	<
.	4ee\	.
.	8dd\	.
=136	=136	=136
8FF#/	(4.cc#\	.
16F#/LL	.	.
16A#/	.	.
16d/	.	.
[16a#/JJ	.	.
8a#/]	24dd\LL	.
.	24cc#\	.
.	24b\JJ	.
2r	8cc#\	<
.	4gg\	.
.	8ff#\	.
=137	=137	=137
8GG/	(8ff#'\	.
16G/LL	4ee'\	.
16B/	.	.
16d/	.	.
[16e/J	.	.
8e/J]	[8dd'\	.
2r	8dd\L]	.
.	8cc#'\J	.
.	[4cc#\	.
=138	=138	=138
1r	2cc#\]	.
.	4b\	.
.	4r	.
=139	=139	=139
8GG/	(4.b-\	.
16G/LL	.	.
16B-/	.	.
16e-/	.	.
[16g/J	.	.
8g/J]	24ccn\LL	.
.	24b-\	.
.	24a\JJ	.
2r	8b-\	<
.	4ffn\	.
.	8ee-\	.
=140	=140	=140
8BB-/	(4.dd\	.
*clefG2	*	*
16B-/LL	.	.
16d/	.	.
16g/	.	.
[16b-/J	.	.
8b-/J]	24een\LL	.
.	24dd\	.
.	24cc#\JJ	.
2r	8dd\	<
.	4aa\	.
.	8bb-\	.
*clefF4	*	*
=141	=141	=141
8AA/	(4aa#\	.
*clefG2	*	*
16A/LL	.	.
16c#/	.	.
16e/	[4bb\	.
16g/J	.	.
[8g/ [8b/J	.	.
2g/] 2b/]	8bb\L]	.
.	8aan'\	.
.	8.gg'\	.
.	16ff#\Jk	.
*clefF4	*	*
=142	=142	=142
2r	(4ff#\	.
.	2ee\	.
4r	.	.
4A\	4g\ 4b\ 4cc#\ (4ee#\	.
=143	=143	=143
*MM116	*MM116	*MM116
*^	*	*
12r	1DD	4f#\ 4a\ 4dd\ (4ff#\	.
12A/L	.	.	.
12d/	.	.	.
12a/	.	8dd\ 8ff#\ 8aa\L	.
12d/	.	.	.
.	.	8ff#\ 8aa\ 8ddd\J	.
[12A/J	.	.	.
12A/L]	.	8dd\ 8ff#\ 8bb\L	.
12A/	.	.	.
.	.	8b\ 8dd\ 8gg\	.
12d/	.	.	.
12a/	.	8g\ 8b\ 8ee\	.
12d/	.	.	.
.	.	8ff#\J	.
[12A/J	.	.	.
*v	*v	*	*
=144	=144	=144
*	*^	*
12A/L]	8gg/L	4.b\ 4.dd\	.
12A/	.	.	.
.	8ff#/	.	.
12d/	.	.	.
12a/	8gg/	.	.
12d/	.	.	.
.	8bb/J	8cc#\ 8ee\	.
[12A/J	.	.	.
12A/L]	2r	4b\ 4ee#\ 4gg#\	.
12A/	.	.	.
12d/	.	.	.
12a/	.	8ff#\ 8aa\	.
12d/	.	.	.
.	.	8r	.
12A/J	.	.	.
=145	=145	=145	=145
*	*	*8va	*
12r	1D	8r	.
12A/L	.	.	.
.	.	8aa\ 8ddd\ (8fff#\L	.
12d/	.	.	.
12a/	.	8ddd\ 8fff#\ 8aaa\	.
12d/	.	.	.
.	.	8fff#\ 8aaa\ 8dddd\J	.
[12A/J	.	.	.
12A/L]	.	8ddd\ 8fff#\ 8bbb\L	.
12A/	.	.	.
.	.	8bb\ 8ddd\ 8ggg\	.
12d/	.	.	.
12a/	.	8gg\ 8bb\ 8eee\	.
12d/	.	.	.
.	.	8fff#\J	.
[12A/J	.	.	.
*v	*v	*	*
=146	=146	=146
*	*^	*
12A/L]	8ggg/L	4.bb\ 4.ddd\	.
12A/	.	.	.
.	8fff#/	.	.
12d/	.	.	.
12a/	8ggg/	.	.
12d/	.	.	.
.	8bbb/J	8ccc#\ 8eee\	.
[12A/J	.	.	.
12A/L]	2r	4bb\ 4eee#\ 4ggg#\	.
12A/	.	.	.
12d/	.	.	.
12a/	.	8cccn\ 8fff#\ 8aaa\	.
12d/	.	.	.
.	.	8r	.
12A/J	.	.	.
*	*	*X8va	*
=147	=147	=147	=147
12r	1DD	8r	.
12A/L	.	.	.
.	.	8ccn\ 8ff#\ (8aa\L	.
12d/	.	.	.
12a/	.	8ee\ 8gg\ 8cccn\	.
12d/	.	.	.
.	.	8ff#\ 8aa\ 8eee\J	.
[12A/J	.	.	.
12A/L]	.	4ee\ 4gg\ [4ccc\	.
12A/	.	.	.
12d/	.	.	.
12a/	.	8ff#\ 8aa\ 8ccc\]	.
12d/	.	.	.
.	.	8r	.
12A/J	.	.	.
=148	=148	=148	=148
12r	1DD	8r	.
12A/L	.	.	.
.	.	8ee\ 8gg\ (8cccn\L	.
12d/	.	.	.
12a/	.	8ff#\ 8aa\ 8eee\	.
12d/	.	.	.
.	.	8bb\ 8eee\ 8ggg\J	.
[12A/J	.	.	.
12A/L]	.	8gg\ 8ccc\ 8eee\L	.
12A/	.	.	.
.	.	8ee\ 8aa\ 8ccc\	.
12d/	.	.	.
12a/	.	8ccn\ 8ff#\ 8aa\	.
12d/	.	.	.
.	.	8bb\ 8eee\ (8ggg\J	.
[12A/J	.	.	.
*v	*v	*	*
=149	=149	=149
12A/L]	8gg\ 8cccn\ 8eee\L	.
12A/	.	.
.	8ee\ 8aa\ 8ccc\	.
12d/	.	.
12a/	8ccn\ 8ff#\ 8aa\	.
12d/	.	.
.	8bb\ 8eee\ (8ggg\J	.
[12A/J	.	.
12A/L]	4gg\ 4ccc\ 4eee\	.
12A/	.	.
12d/	.	.
12a/	4ee\ 4aa\ 4ccc\	.
12d/	.	.
[12A/J	.	.
=150	=150	=150
12A/L]	[2ccn\ [2ff#\ [2aa\	.
12A/	.	.
12d/	.	.
12a/	.	.
12d/	.	.
12A/J	.	.
4r	12cc\] 12ff#\] 12aa\L]	.
.	12gg\ 12bb\	.
.	12ff#\ 12aa\	.
*clefG2	*	*
4d/ 4ccn/	12ee\ 12gg\	.
.	12.ff#\ 12.aa\	.
.	24gg\ 24bb\Jk	.
*clefF4	*	*
*^	*	*
=151	=151	=151	=151
12r	1GG	[4b\ 4gg\ (4bb\	.
12D/L	.	.	.
12G/	.	.	.
12d/	.	8b\] 8dd\L	.
12G/	.	.	.
.	.	8b\ 8dd\ 8gg\J	.
[12D/J	.	.	.
12D/L]	.	8g/ 8b/ 8ee/L	.
12D/	.	.	.
.	.	8e/ 8g/ 8ccn/	.
12G/	.	.	.
12d/	.	8cn/ 8e/ 8a/	.
12G/	.	.	.
.	.	8b/J	.
[12D/J	.	.	.
=152	=152	=152	=152
*	*	*^	*
12D/L]	2r	8ccn/L	4.e\ 4.g\	.
12D/	.	.	.	.
.	.	8b/	.	.
12G/	.	.	.	.
12d/	.	8cc/	.	.
12G/	.	.	.	.
.	.	8ee/J	8f#\ 8a\	.
[12D/J	.	.	.	.
12D/L]	2GG\	2r	4e/ 4a#/ 4cc#/	.
12D/	.	.	.	.
12G/	.	.	.	.
12d/	.	.	8b\ 8dd\	.
12G/	.	.	.	.
.	.	.	8r	.
12D/J	.	.	.	.
*	*	*v	*v	*
=153	=153	=153	=153
12r	1GG	8r	.
12D/L	.	.	.
.	.	8dd\ 8gg\ (8bb\L	.
12G/	.	.	.
12d/	.	8gg\ 8bb\ 8ddd\	.
12G/	.	.	.
.	.	8bb\ 8ddd\ 8ggg\J	.
[12D/J	.	.	.
12D/L]	.	8gg\ 8bb\ 8eee\L	.
12D/	.	.	.
.	.	8ee\ 8gg\ 8cccn\	.
12G/	.	.	.
12d/	.	8ccn\ 8ee\ 8aa\	.
12G/	.	.	.
.	.	8dd\ 8ff#\ 8bb\J	.
[12D/J	.	.	.
=154	=154	=154	=154
*	*	*^	*
12D/L]	2r	8cccn/L	4.ee\ 4.gg\	.
12D/	.	.	.	.
.	.	8bb/	.	.
12G/	.	.	.	.
12d/	.	8ccc/	.	.
12G/	.	.	.	.
.	.	8eee/J	8ff#\ 8aa\	.
12D/J	.	.	.	.
12r	2GG\	2r	4ee\ 4aa#\ 4ccc#\	.
12D/L	.	.	.	.
12G/	.	.	.	.
12d/	.	.	8ffn\ 8bb\ 8ddd\	.
12G/	.	.	.	.
.	.	.	8r	.
12D/J	.	.	.	.
*	*	*v	*v	*
=155	=155	=155	=155
12r	1GG	8r	.
12D/L	.	.	.
.	.	8fn\ 8b\ (8dd\L	.
12G/	.	.	.
12d/	.	8a\ 8ccn\ 8ffn\	.
12G/	.	.	.
.	.	8b\ 8dd\ 8aa\J	.
[12D/J	.	.	.
12D/L]	.	4a\ 4cc\ [4ff\	.
12D/	.	.	.
12G/	.	.	.
12d/	.	8b\ 8dd\ 8ff\]	.
12G/	.	.	.
.	.	8r	.
12D/J	.	.	.
=156	=156	=156	=156
12r	1GG	8r	.
12D/L	.	.	.
.	.	8a\ 8ccn\ (8ffn\L	.
12G/	.	.	.
12d/	.	8b\ 8dd\ 8aa\	.
12G/	.	.	.
.	.	8ff\ 8bb\ 8ddd\J	.
[12D/J	.	.	.
12D/L]	.	8cc\ 8ff\ 8aa\L	.
12D/	.	.	.
.	.	8a\ 8dd\ 8ff\	.
12G/	.	.	.
12d/	.	8fn\ 8b\ 8dd\	.
12G/	.	.	.
.	.	8ff\ 8bb\ (8ddd\J	.
12D/J	.	.	.
=157	=157	=157	=157
12r	2GG\	8ccn\ 8ffn\ 8aa\L	.
12D/L	.	.	.
.	.	8a\ 8dd\ 8ff\	.
12G/	.	.	.
12d/	.	8fn\ 8b\ 8dd\	.
12G/	.	.	.
.	.	8ff\ 8bb\ (8ddd\J	.
12D/J	.	.	.
12r	2GG\	4cc\ 4ff\ 4aa\	p
12D/L	.	.	.
12G/	.	.	.
12d/	.	4a\ 4dd\ 4ff\	.
12G/	.	.	.
12D/J	.	.	.
*v	*v	*	*
=158	=158	=158
1r	4fn/ 4b/ 4dd/	.
.	4e/ 4a/ 4ccn/	.
.	4cn/ 4f/ 4a/	.
.	4B/ 4d/ 4f/	.
*	*clefF4	*clefF4
*^	*	*
=159	=159	=159	=159
2r	1GGG	12B-\ (12e-\L	.
.	.	12E-\	.
.	.	12B-\	.
.	.	12e-\	.
.	.	12B-\	.
.	.	12E-\J	.
8r	.	12B-\L	.
.	.	12e-\	.
8EE-/L	.	.	.
.	.	12B-\	pp
8GG/	.	12E-\	.
.	.	12B-\	.
8C-/J	.	.	.
.	.	12e-\J	.
*v	*v	*	*
=160	=160	=160
8BB-/L	12r	.
.	12E-\L	.
8GG/	.	.
.	12B-\	.
8EE-/	12e-\	.
.	12B-\	.
8C-/J	.	.
.	[12E-\J	.
8BB-/L	12E-\L]	.
.	12E-\	.
8GG/	.	.
.	12B-\	.
8EE-/	12e-\	.
.	12B-\	.
8C-/J	.	.
.	12E-\J	.
=161	=161	=161
4BB-/	12r	.
.	12E-\L	.
.	12B-\	.
4GG/	12e-\	.
.	12B-\	.
.	12E-\J	.
4EE-/	12r	.
.	12E-\L	.
.	12B-\	.
4DD-/	12e-\	.
.	12B-\	.
.	12E-\J	.
=162	=162	=162
*k[f#c#g#d#a#]	*k[f#c#g#d#a#]	*k[f#c#g#d#a#]
(16BBB/LL	1D#^ 1G#^ 1d#^	mf
16CC#/	.	.
16DD#/	.	.
16DD#/	.	.
16EE/	.	.
16EE#/	.	.
16FF#/	.	.
16FF##/	.	.
16GG#/	.	.
16FF##/	.	.
16FF#/	.	.
16EE#/	.	.
16EEn/	.	.
16DD#/	.	.
16CC##/	.	.
16CC#/JJ	.	.
=163	=163	=163
*	*^	*
(16BBB/LL	2e^/	4D#\ 4G#\	.
16CC#/	.	.	.
16DDn/	.	.	.
16DD#/	.	.	.
16EE/	.	4r	.
16EE#/	.	.	.
16FF#/	.	.	.
16FF##/	.	.	.
16GG#/	2f#^/	4D#\ 4G#\	.
16FF##/	.	.	.
16FF#/	.	.	.
16EE#/	.	.	.
16EEn/	.	4r	.
16DD#/	.	.	.
16CC##/	.	.	.
16CC#/JJ	.	.	.
=164	=164	=164	=164
(16BBB/LL	[1g#^	4D#\ 4G#\ 4B\	.
16CC#/	.	.	.
16DDn/	.	.	.
16DD#/	.	.	.
16EE/	.	4r	.
16EE#/	.	.	.
16FF#/	.	.	.
16FF##/	.	.	.
16GG#/	.	2r	.
16FF##/	.	.	.
16FF#/	.	.	.
16EE#/	.	.	.
16EEn/	.	.	.
16DD#/	.	.	.
16CC##/	.	.	.
16CC#/JJ	.	.	.
=165	=165	=165	=165
16BBB/LL	4g#/]	2r	.
16CC#/	.	.	.
16DDn/	.	.	.
16DD#/	.	.	.
16EE/	(4d#/	.	.
16EE#/	.	.	.
16FF#/	.	.	.
16FF##/	.	.	.
16GG#/	4.f#^/	2G#\ 2B\	.
16FF##/	.	.	.
16FF#/	.	.	.
16EE#/	.	.	.
16EEn/	.	.	.
16DD#/	.	.	.
16CC##/	8e/	.	.
16CC#/JJ	.	.	.
*	*v	*v	*
=166	=166	=166
16BBB/LL	[1G# [1B (1e	.
16CC#/	.	.
16DDn/	.	.
16DD#/	.	.
16EE/	.	.
16EE#/	.	.
16FF#/	.	.
16FF##/	.	.
16GG#/	.	.
16FF##/	.	.
16FF#/	.	.
16EE#/	.	.
16EEn/	.	.
16DD#/	.	.
16CC##/	.	.
16CC#/JJ	.	.
=167	=167	=167
*	*^	*
16BBB/LL	4d#/	4G#\] 4B\]	.
16CC#/	.	.	.
16DDn/	.	.	.
16DD#/	.	.	.
16EE/	4r	4r	.
16EE#/	.	.	.
16FF#/	.	.	.
16FF##/	.	.	.
16GG#/	2r	2r	.
16FF##/	.	.	.
16FF#/	.	.	.
16EE#/	.	.	.
16EEn/	.	.	.
16DD#/	.	.	.
16CC##/	.	.	.
16CC#/JJ	.	.	.
*	*v	*v	*
=168	=168	=168
*clefF4	*	*
(16CC#/LL	1E^ 1G#^ 1A#^	<
16DD#/	.	.
16EE/	.	.
16EE#/	.	.
16FF#/	.	.
16FF##/	.	.
16GG#/	.	.
16AAn/	.	.
16AA#/	.	.
16AAn/	.	.
16GG#/	.	.
16FF##/	.	.
16FF#/	.	.
16EE#/	.	.
16EEn/	.	.
16DD#/JJ	.	.
=169	=169	=169
(16CC#/LL	2E^\ 2G#^\ 2B^\	.
16DD#/	.	.
16EE/	.	.
16EE#/	.	.
16FF#/	.	.
16FF##/	.	.
16GG#/	.	.
16AAn/	.	.
16AA#/	2E^\ 2G#^\ 2c#^\	.
16AAn/	.	.
16GG#/	.	.
16FF##/	.	.
16FF#/	.	.
16EE#/	.	.
16EEn/	.	.
16DD#/JJ	.	.
=170	=170	=170
(16BBB/LL	[1D# [1G# [1d#	.
16CC#/	.	.
16DDn/	.	.
16DD#/	.	.
16EE/	.	.
16EE#/	.	.
16FF#/	.	.
16FF##/	.	.
16GG#/	.	.
16FF##/	.	.
16FF#/	.	.
16EE#/	.	.
16EEn/	.	.
16DD#/	.	.
16CC##/	.	.
16CC#/JJ	.	.
=171	=171	=171
*	*^	*
(16BBB/LL	2r	2D#\] 2G#\] 2d#\]	.
16CC#/	.	.	.
16CC##/	.	.	.
16DD#/	.	.	.
16EE/	.	.	.
16EE#/	.	.	.
16FF#/	.	.	.
16FF##/	.	.	.
16GG#/	(4f#/	2D#\ 2G#\	.
16FF##/	.	.	.
16FF#/	.	.	.
16EE#/	.	.	.
16EEn/	4e/	.	.
16DD#/	.	.	.
16DDn/	.	.	.
16BBB#/JJ	.	.	.
*	*v	*v	*
=172	=172	=172
(16CC#/LL	1E^ 1G#^ 1A^	.
16DD#/	.	.
16EE/	.	.
16EE#/	.	.
16FF#/	.	.
16FF##/	.	.
16GG#/	.	.
16AAn/	.	.
16AA#/	.	.
16AAn/	.	.
16GG#/	.	.
16FF##/	.	.
16FF#/	.	.
16EE#/	.	.
16EEn/	.	.
16DD#/JJ	.	.
=173	=173	=173
(16CC#/LL	2E^\ 2G#^\ 2B^\	.
16DD#/	.	.
16EE/	.	.
16EE#/	.	.
16FF#/	.	.
16FF##/	.	.
16GG#/	.	.
16AAn/	.	.
16AA#/	2E^\ 2G#^\ 2c#^\	.
16AAn/	.	.
16GG#/	.	.
16FF##/	.	.
16FF#/	.	.
16EE#/	.	.
16EEn/	.	.
16DD#/JJ	.	.
=174	=174	=174
*k[f#c#g#d#a#]	*k[f#c#g#d#a#]	*k[f#c#g#d#a#]
16BBB/LL	2.D#^\ 2.G#^\ 2.d#^\	<
16CC#/	.	.
16CC##/	.	.
16DD#/	.	.
16EE/	.	.
16EE#/	.	.
16FF#/	.	.
16FF##/	.	.
16GG#/	.	.
16AAn/	.	.
16AA#/	.	.
16BB/JJ	.	.
4r	4D#\ 4d#\	.
=175	=175	=175
16AAA#/LL	2.D#^\ 2.F##^\ 2.c#^\ 2.d#^\	.
16BBB/	.	.
16CC#/	.	.
16CC##/	.	.
16DD#/	.	.
16EE/	.	.
16EE#/	.	.
16FF#/	.	.
16FF##/	.	.
16GG#/	.	.
16AAn/	.	.
16AA#/JJ	.	.
4r	4D#\ 4d#\	.
=176	=176	=176
*MM144	*MM144	*MM144
8AAAn/ 8FF#/ 8Cn/	16E-\LL	p
.	16e-\	.
8r	16En\	.
.	16en\	.
4r	16Fn\	.
.	16fn\	.
.	16F#\	.
.	16f#\JJ	.
*	*clefG2	*clefG2
2r	16Gn/LL	.
.	16gn/	.
.	16G#/	.
.	16g#/	.
.	16An/	.
.	16an/	.
.	16B-/	.
.	16b-/JJ	.
=177	=177	=177
2r	16B/LL	<
.	16b/	.
.	16cn/	.
.	16ccn/	.
.	16c#/	.
.	16cc#/	.
.	16dn/	.
.	16ddn/JJ	.
(2GG#/ 2BB/ 2F#/	16e-/LL	.
.	16ee-/	.
.	16d/	.
.	16dd/	.
.	16c#/	.
.	16cc#/	.
.	16cn/	.
.	16ccn/JJ	.
=178	=178	=178
8AAn'/ 8Cn'/ 8E-'/	16F#/LL	.
.	16f#/	.
8r	16Gn/	.
.	16gn/	.
4r	16G#/	.
.	16g#/	.
.	16An/	.
.	16an/JJ	.
2r	16B-/LL	.
.	16b-/	.
.	16Bn/	.
.	16bn/	.
.	16cn/	.
.	16ccn/	.
.	16c#/	.
.	16cc#/JJ	.
=179	=179	=179
2r	16dn/LL	<
.	16ddn/	.
.	16e-/	.
.	16ee-/	.
.	16en/	.
.	16een/	.
.	16fn/	.
.	16ffn/JJ	.
(2BB\ 2D#\ 2An\	16f#\LL	.
.	16ff#\	.
.	16fn\	.
.	16ffn\	.
.	16e\	.
.	16ee\	.
.	16e-\	.
.	16ee-\JJ	.
=180	=180	=180
*^	*	*
2r	2BB-\ 2E-\ [2F#\	16ccn\LL	.
.	.	16cccn\	.
.	.	16b\	.
.	.	16bb\	.
.	.	16b-\	.
.	.	16bb-\	.
.	.	16an\	.
.	.	16aan\JJ	.
2Cn/ 2F#/]	4AAn\	16ee-\LL	<
.	.	16eee-\	.
.	.	16een\	.
.	.	16eeen\	.
.	4AA-\	16ffn\	.
.	.	16fffn\	.
.	.	16ff#\	.
.	.	16fff#\JJ	.
*v	*v	*	*
=181	=181	=181
*k[b-e-a-]	*k[b-e-a-]	*k[b-e-a-]
*^	*	*
16GGG/LL	8GGG\L	1G^ 1c^ 1e-^ 1g^	f
16GG/	.	.	.
16AAA-/	8AAA-\	.	.
16AA-/	.	.	.
16AAAn/	8AAAn\	.	.
16AAn/	.	.	.
16BBB-/	8BBB-\J	.	.
16BB-/JJ	.	.	.
16BBBn/LL	8BBBn\L	.	.
16BBn/	.	.	.
16CC/	8CC\	.	.
16C/	.	.	.
16CC#/	8CC#\	.	.
16C#/	.	.	.
16DD/	8DD\J	.	.
16D/JJ	.	.	.
=182	=182	=182	=182
16EE-/LL	8EE-\L	2A-^/ 2c^/ 2e-^/ 2a-^/	.
16E-/	.	.	.
16DD/	8DD\	.	.
16D/	.	.	.
16DD-/	8DD-\	.	.
16D-/	.	.	.
16CC/	8CC\J	.	.
16C/JJ	.	.	.
16BBBn/LL	8BBBn\L	2B-^/ 2e-^/ 2b-^/	.
16BBn/	.	.	.
16BBB-/	8BBB-\	.	.
16BB-/	.	.	.
16AAAn/	8AAAn\	.	.
16AAn/	.	.	.
16AAA-/	8AAA-\J	.	.
16AA-/JJ	.	.	.
=183	=183	=183	=183
16GGG/LL	8GGG\L	[1c^ [1e-^ [1cc^	.
16GG/	.	.	.
16AAA-/	8AAA-\	.	.
16AA-/	.	.	.
16AAAn/	8AAAn\	.	.
16AAn/	.	.	.
16BBB-/	8BBB-\J	.	.
16BB-/JJ	.	.	.
16BBBn/LL	8BBBn\L	.	.
16BBn/	.	.	.
16CC/	8CC\	.	.
16C/	.	.	.
16CC#/	8CC#\	.	.
16C#/	.	.	.
16DD/	8DD\J	.	.
16D/JJ	.	.	.
=184	=184	=184	=184
16EE-/LL	8EE-\L	4c/] 4e-/] 4cc/]	.
16E-/	.	.	.
16DD/	8DD\	.	.
16D/	.	.	.
16DD-/	8DD-\	(4G/ 4e-/ 4g/	.
16D-/	.	.	.
16CC/	8CC\J	.	.
16C/JJ	.	.	.
16BBBn/LL	8BBBn\L	4.B-/ 4.e-/ 4.b-/	.
16BBn/	.	.	.
16BBB-/	8BBB-\	.	.
16BB-/	.	.	.
16AAAn/	8AAAn\	.	.
16AAn/	.	.	.
16AAA-/	8AAA-\J	8A-/ 8a-/	.
16AA-/JJ	.	.	.
=185	=185	=185	=185
16GGG/LL	8GGG\L	(1A- 1c 1e- 1a-	.
16GG/	.	.	.
16AAA-/	8AAA-\	.	.
16AA-/	.	.	.
16AAAn/	8AAAn\	.	.
16AAn/	.	.	.
16BBB-/	8BBB-\J	.	.
16BB-/JJ	.	.	.
16BBBn/LL	8BBBn\L	.	.
16BBn/	.	.	.
16CC/	8CC\	.	.
16C/	.	.	.
16CC#/	8CC#\	.	.
16C#/	.	.	.
16DD/	8DD\J	.	.
16D/JJ	.	.	.
=186	=186	=186	=186
16EE-/LL	8EE-\L	4G/ 4c/ 4e-/ 4g/	.
16E-/	.	.	.
16DD/	8DD\	.	.
16D/	.	.	.
16DD-/	8DD-\	4r	.
16D-/	.	.	.
16CC/	8CC\J	.	.
16C/JJ	.	.	.
16BBBn/LL	8BBBn\L	2r	.
16BBn/	.	.	.
16BBB-/	8BBB-\	.	.
16BB-/	.	.	.
16AAAn/	8AAAn\	.	.
16AAn/	.	.	.
16AAA-/	8AAA-\J	.	.
16AA-/JJ	.	.	.
*v	*v	*	*
*	*clefF4	*clefF4
=187	=187	=187
16FFF/LL	1D 1A- 1c 1d	.
16FF/	.	.
16FFF#/	.	.
16FF#/	.	.
16GGG/	.	.
16GG/	.	.
16AAA-/	.	.
16AA-/JJ	.	.
16AAAn/LL	.	.
16AAn/	.	.
16BBB-/	.	.
16BB-/	.	.
16BBBn/	.	.
16BBn/	.	.
16CC/	.	.
16C/JJ	.	.
=188	=188	=188
8r	2E-^\ 2A-^\ 2c^\ 2e-^\	.
16BBBn/LL	.	.
16BBn/	.	.
16BBB-/	.	.
16BB-/	.	.
16AAAn/	.	.
16AAn/JJ	.	.
16AAA-/LL	2F^\ 2A-^\ 2c^\ 2f^\	.
16AA-/	.	.
16GGG/	.	.
16GG/	.	.
16FFF#/	.	.
16FF#/	.	.
16FFFn/	.	.
16FFn/JJ	.	.
=189	=189	=189
16EEE-/LL	[1G^ [1c^ [1g^	.
16EE-/	.	.
16EEEn/	.	.
16EEn/	.	.
16FFF/	.	.
16FF/	.	.
16FFF#/	.	.
16FF#/JJ	.	.
16GGG/LL	.	.
16GG/	.	.
16AAA-/	.	.
16AA-/	.	.
16AAAn/	.	.
16AAn/	.	.
16BBB-/	.	.
16BB-/JJ	.	.
=190	=190	=190
16BBBn/LL	4G\] 4c\] 4g\]	.
16BBn/	.	.
16CC/	.	.
16C/	.	.
16CC#/	2B-\ (2b-\	.
16C#/	.	.
16DD/	.	.
16D/	.	.
16EE-/	.	.
16E-/JJ	.	.
8r	.	.
4r	4A-\ 4a-\	.
=191	=191	=191
16FFF/LL	1D 1A- 1c 1d	.
16FF/	.	.
16FFF#/	.	.
16FF#/	.	.
16GGG/	.	.
16GG/	.	.
16AAA-/	.	.
16AA-/JJ	.	.
16AAAn/LL	.	.
16AAn/	.	.
16BBB-/	.	.
16BB-/	.	.
16BBBn/	.	.
16BBn/	.	.
16CC/	.	.
16C/JJ	.	.
=192	=192	=192
8r	2E-^\ 2A-^\ 2c^\ 2e-^\	.
16BBBn/LL	.	.
16BBn/	.	.
16BBB-/	.	.
16BB-/	.	.
16AAAn/	.	.
16AAn/JJ	.	.
16AAA-/LL	2F^\ 2A-^\ 2c^\ 2f^\	.
16AA-/	.	.
16GGG/	.	.
16GG/	.	.
16FFF#/	.	.
16FF#/	.	.
16FFFn/	.	.
16FFn/JJ	.	.
=193	=193	=193
16EEE-/LL	2.G\ 2.c\ 2.g\	.
16EE-/	.	.
16EEEn/	.	.
16EEn/	.	.
16FFF/	.	.
16FF/	.	.
16FFF#/	.	.
16FF#/JJ	.	.
16GGG/LL	.	.
16GG/	.	.
16AAA-/	.	.
16AA-/JJ	.	.
4r	4G\ 4g\	.
=194	=194	=194
16DDD/LL	2.G\ 2.Bn\ 2.f\ 2.g\	.
16DD/	.	.
16EEE-/	.	.
16EE-/	.	.
16EEEn/	.	.
16EEn/	.	.
16FFF/	.	.
16FF/JJ	.	.
16FFF#/LL	.	.
16FF#/	.	.
16GGG/	.	.
16GG/JJ	.	.
4r	4G\ 4g\	.
=195	=195	=195
*k[f#c#]	*k[f#c#]	*k[f#c#]
8CCC#''/ 8CC#''/	8G''\ 8A#''\ 8e''\ 8g''\	.
*	*clefG2	*clefG2
8r	16G#/LL	.
.	16g#/	.
4r	16An/	.
.	16a/	.
.	16A#/	.
.	16a#/JJ	.
4BB/ 4D/ 4Gn/	16B/LL	.
.	16b/	.
.	16cn/	.
.	16ccn/	.
4r	16c#/	.
.	16cc#/	.
.	16d/	.
.	16dd/JJ	.
=196	=196	=196
4AA#/ 4C#/ 4G/	16d#/LL	.
.	16dd#/	.
.	16e/	.
.	16ee/	.
4r	16e#/	.
.	16ee#/	.
.	16f#/	.
.	16ff#/JJ	.
2r	16g\LL	.
.	16gg\	.
.	16f#\	.
.	16ff#\	.
.	16e#\	.
.	16ee#\	.
.	16en\	.
.	16een\JJ	.
=197	=197	=197
4GG/ 4AA#/ 4E/	16c#/LL	.
.	16cc#/	.
.	16d/	.
.	16dd/	.
4r	16d#/	.
.	16dd#/	.
.	16e/	.
.	16ee/JJ	.
4FF#/ 4AAn/ 4D/	16e#\LL	.
.	16ee#\	.
.	16f#\	.
.	16ff#\	.
4r	16g\	.
.	16gg\	.
.	16g#\	.
.	16gg#\JJ	.
=198	=198	=198
4EE/ 4GG/ 4C#/	16a\LL	.
.	16aa\	.
.	16a#\	.
.	16aa#\	.
4r	16b\	.
.	16bb\	.
.	16b#\	.
.	16bb#\JJ	.
2r	16cc#\LL	.
.	16ccc#\	.
.	16b#\	.
.	16bb#\	.
.	16bn\	.
.	16bbn\	.
.	16a#\	.
.	16aa#\JJ	.
=199	=199	=199
*^	*	*
16g/LL	4A#^\ 4c#^\	16r	.
16r	.	16gg\ 16ccc#\ 16ggg\LL	.
16f#/	.	16r	.
16r	.	16ff#\ 16fff#\	.
16e#/	4r	16r	.
16r	.	16ee#\ 16eee#\	.
16en/JJ	.	16r	.
16r	.	16een\ 16eeen\JJ	.
16d/LL	4E#^\ 4G#^\	16r	.
16c#/	.	16dd\ 16gg#\ 16ddd\LL	.
16r	.	16r	.
16cn/	.	16cc#\ 16ccc#\	.
16r	4r	16r	.
16B/JJ	.	16ccn\ 16cccn\	.
16r	.	16r	.
16r	.	16b\ 16bb\JJ	.
*v	*v	*	*
*clefG2	*	*
=200	=200	=200
*^	*	*
16a/LL	4cn^\ 4d#^\	16r	.
16r	.	16aa\ 16ddd#\ 16aaa\LL	.
16g#/	.	16r	.
16r	.	16gg#\ 16ggg#\	.
16gn/	4r	16r	.
16r	.	16ggn\ 16gggn\	.
16f#/JJ	.	16r	.
16r	.	16ff#\ 16fff#\JJ	.
16e/LL	4G^\ 4A#^\	16r	.
16r	.	16ee\ 16aa#\ 16eee\LL	.
16d#/	.	16r	.
16r	.	16dd#\ 16ddd#\	.
16dn/	4r	16r	.
16r	.	16ddn\ 16dddn\	.
16c#/JJ	.	16r	.
16r	.	16cc#\ 16ccc#\JJ	.
=201	=201	=201	=201
*	*	*8va	*
4dd^/ 4ee#^/	16bb\LL	16r	.
.	16aa#\	16bb\ 16eee#\ 16bbb\LL	<
.	16aan\	16r	.
.	16gg#\JJ	16aa#\ 16aaa#\	.
4r	16r	16r	.
.	16r	16aan\ 16aaan\	.
.	16r	16r	.
.	16r	16gg#\ 16ggg#\JJ	.
4dd#^/ 4ff#^/	16cccn\LL	16r	.
.	16bb\	16cccn\ 16fff#\ 16ccccn\LL	.
.	16aa#\	16r	.
.	16aan\JJ	16bb\ 16bbb\	.
4r	16r	16r	.
.	16r	16aa#\ 16aaa#\	.
.	16r	16r	.
.	16r	16aan\ 16aaan\JJ	.
=202	=202	=202	=202
16ccc#/LL	4ee^\ 4gg^\	16r	.
16r	.	16ccc#\ 16ggg\ 16cccc#\LL	.
16cccn/	.	16r	.
16r	.	16cccn\ 16ccccn\	.
16bb/	4r	16r	.
16r	.	16bb\ 16bbb\	.
16aa#/JJ	.	16r	.
16r	.	16aa#\ 16aaa#\JJ	.
16ddd/LL	4ee#^\ 4gg#^\	16r	.
16ccc#/	.	16ddd\ 16ggg#\ 16dddd\LL	.
16r	.	16r	.
16cccn/	.	16ccc#\ 16cccc#\	.
16r	4r	16r	.
16bb/JJ	.	16cccn\ 16ccccn\	.
16r	.	16r	.
16r	.	16bb\ 16bbb\JJ	.
*v	*v	*	*
=203	=203	=203
16gg^/ 16aa#^/ 16ccc#^/ 16ggg^/LL	16r	.
16r	16ggg\ 16aaa#\ 16cccc#\ 16gggg\LL	.
16ff#/ 16fff#/	16r	.
16r	16fff#\ 16ffff#\	.
16ee#/ 16eee#/	16r	.
16r	16eee#\ 16eeee#\	.
16een/ 16eeen/JJ	16r	.
16r	16eeen\ 16eeeen\JJ	.
16cc#/ 16ccc#/LL	16r	.
16r	16ccc#\ 16cccc#\LL	.
16ccn/ 16cccn/	16r	.
16r	16cccn\ 16ccccn\	.
16b/ 16bb/	16r	.
16r	16bb\ 16bbb\	.
16a#/ 16aa#/JJ	16r	.
16r	16aa#\ 16aaa#\JJ	.
*clefF4	*	*
=204	=204	=204
16g^\ 16a#^\ 16cc#^\ 16gg^\LL	16r	.
16r	16gg\ 16aa#\ 16ccc#\ 16ggg\LL	.
16f#\ 16ff#\	16r	.
16r	16ff#\ 16fff#\	.
16e#\ 16ee#\	16r	.
16r	16ee#\ 16eee#\	.
16en\ 16een\JJ	16r	.
16r	16een\ 16eeen\JJ	.
*	*X8va	*
16C#\ 16c#\LL	16r	.
16r	16cc#\ 16ccc#\LL	.
16Cn\ 16cn\	16r	.
16r	16ccn\ 16cccn\	.
16BB\ 16B\	16r	.
16r	16b\ 16bb\	.
16AA#\ 16A#\JJ	16r	.
16r	16a#\ 16aa#\JJ	.
=205	=205	=205
16GG^/ 16AA#^/ 16C#^/ 16G^/LL	16r	.
16r	16g\ 16a#\ 16cc#\ 16gg\LL	.
16FF#/ 16F#/	16r	.
16r	16f#\ 16ff#\	.
16EE#/ 16E#/	16r	.
16r	16e#\ 16ee#\	.
16EEn/ 16En/JJ	16r	.
16r	16en\ 16een\JJ	.
16CC#/ 16C#/LL	16r	.
16r	16c#/ 16cc#/LL	.
16CCn/ 16Cn/	16r	.
16r	16cn/ 16ccn/	.
16BBB/ 16BB/	16r	.
16r	16B/ 16b/	.
16AAA#/ 16AA#/JJ	16r	.
16r	16A#/ 16a#/JJ	.
=206	=206	=206
16GG^/ 16G^/LL	16r	.
16r	16g/LL	.
16FF#/ 16F#/	16r	.
16r	16f#/	.
16EE#/ 16E#/	16e#/	.
16r	16r	.
16EEn/ 16En/JJ	16en/JJ	.
16r	16r	.
16CC#/ 16C#/LL	16r	.
16r	16c#/LL	.
16CCn/ 16Cn/	16r	.
16r	16cn/	.
16BBB/ 16BB/	16r	.
16r	16B/	.
16AAA#/ 16AA#/JJ	16r	.
16r	16A#/JJ	.
=207	=207	=207
*^	*	*
4r	2GGG\ 2GG\ 2G\	4r	.
12G/ 12B/ 12d/ 12e#/L	.	12g\ 12b\ 12dd\ 12gg\L	fff
12G/ 12B/ 12d/ 12e#/	.	12g\ 12b\ 12dd\ 12gg\	.
12G/ 12B/ 12d/ 12e#/J	.	12g\ 12b\ 12dd\ 12gg\J	.
8G''/ 8B''/ 8d''/ 8e#''/	4r	8g''\ 8b''\ 8dd''\ 8gg''\	.
8r	.	8r	.
24r	24GGG\ 24GG\LL	4r	.
24GG#/ 24G#/LL	24r	.	.
24r	24AAA\ 24AA\	.	.
24AA#/ 24A#/	24r	.	.
24r	24BBB\ 24BB\JJ	.	.
24Cn/ 24cn/JJ	24r	.	.
=208	=208	=208	=208
4r	2CC#\ 2C#\ 2c#\	4r	.
12G/ 12A#/ 12e/ 12g/L	.	12gg\ 12aa#\ 12eee\ 12ggg\L	.
12G/ 12A#/ 12e/ 12g/	.	12gg\ 12aa#\ 12eee\ 12ggg\	.
12G/ 12A#/ 12e/ 12g/J	.	12gg\ 12aa#\ 12eee\ 12ggg\J	.
8G''/ 8A#''/ 8e''/ 8g''/	4r	8gg''\ 8aa#''\ 8eee''\ 8ggg''\	.
8r	.	8r	.
24r	24CC#\ 24C#\LL	4r	.
24BB#/ 24B#/LL	24r	.	.
24r	24BBB\ 24BBn\	.	.
24AA#/ 24A#/	24r	.	.
24r	24AAA\ 24AAn\JJ	.	.
24GG#/ 24G#/JJ	24r	.	.
=209	=209	=209	=209
4r	2GGGn\ 2GGn\ 2Gn\	4r	.
12G/ 12B/ 12d/ 12e#/L	.	12g\ 12b\ 12dd\ 12gg\L	.
12G/ 12B/ 12d/ 12e#/	.	12g\ 12b\ 12dd\ 12gg\	.
12G/ 12B/ 12d/ 12e#/J	.	12g\ 12b\ 12dd\ 12gg\J	.
8G''/ 8B''/ 8d''/ 8e#''/	4r	8g''\ 8b''\ 8dd''\ 8gg''\	.
8r	.	8r	.
24r	24GGG\ 24GG\LL	4r	.
24GG#/ 24G#/LL	24r	.	.
24r	24AAA\ 24AA\	.	.
24AA#/ 24A#/	24r	.	.
24r	24BBB\ 24BB\JJ	.	.
24Cn/ 24cn/JJ	24r	.	.
=210	=210	=210	=210
4r	2CC#\ 2C#\ 2c#\	4r	.
12G/ 12A#/ 12e/ 12g/L	.	12gg\ 12aa#\ 12eee\ 12ggg\L	.
12G/ 12A#/ 12e/ 12g/	.	12gg\ 12aa#\ 12eee\ 12ggg\	.
12G/ 12A#/ 12e/ 12g/J	.	12gg\ 12aa#\ 12eee\ 12ggg\J	.
8G/ 8A#/ 8e/ 8g/	4r	8gg''\ 8aa#''\ 8eee''\ 8ggg''\	.
8r	.	8r	.
24r	24GGG#\ 24GG#\LL	4r	.
24AA/ 24An/LL	24r	.	.
24r	24AAA#\ 24AA#\	.	.
24BB/ 24B/	24r	.	.
24r	24BBB#\ 24BB#\JJ	.	.
24C#/ 24c#/JJ	24r	.	.
=211	=211	=211	=211
4r	2DD\ 2D\ 2d\	4r	.
12G/ 12B-/ 12d/ 12g/L	.	12gg\ 12bb-\ 12ddd\ 12ggg\L	.
12G/ 12B-/ 12d/ 12g/	.	12gg\ 12bb-\ 12ddd\ 12ggg\	.
12G/ 12B-/ 12d/ 12g/J	.	12gg\ 12bb-\ 12ddd\ 12ggg\J	.
8G''/ 8B-''/ 8d''/ 8g''/	4r	8gg''\ 8bb-''\ 8ddd''\ 8ggg''\	.
8r	.	8r	.
24r	24AAA\ 24AA\LL	4r	.
24BB-/ 24B-/LL	24r	.	.
24r	24BBBn\ 24BBn\	.	.
24Cn/ 24cn/	24r	.	.
24r	24CC#\ 24C#\JJ	.	.
24D/ 24d/JJ	24r	.	.
=212	=212	=212	=212
4r	2EE-\ 2E-\ 2e-\	4r	.
12G/ 12B-/ 12d-/ 12g/L	.	12gg\ 12bb-\ 12ddd-\ 12ggg\L	.
12G/ 12B-/ 12d-/ 12g/	.	12gg\ 12bb-\ 12ddd-\ 12ggg\	.
12G/ 12B-/ 12d-/ 12g/J	.	12gg\ 12bb-\ 12ddd-\ 12ggg\J	.
8G''/ 8B-''/ 8d-''/ 8g''/	4r	8gg''\ 8bb-''\ 8ddd-''\ 8ggg''\	.
8r	.	8r	.
24r	24BBB-\ 24BB-\LL	4r	.
24BBn/ 24Bn/LL	24r	.	.
24r	24CCn\ 24Cn\	.	.
24D-/ 24d-/	24r	.	.
24r	24DDn\ 24Dn\JJ	.	.
24E-/ 24e-/JJ	24r	.	.
=213	=213	=213	=213
2r	24EE\ 24E\LL	24r	.
.	24r	24Fn/ 24n/LL	.
.	24FF#\ 24F#\	24r	.
.	24r	24G/ 24g/	.
.	24GG#\ 24G#\JJ	24r	.
.	24r	24A/ 24a/JJ	.
.	24BB-\ 24B-\LL	24r	.
.	24r	24A/ 24a/LL	.
.	24GG#\ 24G#\	24r	.
.	24r	24G/ 24g/	.
.	24FF#\ 24F#\JJ	24r	.
.	24r	24F/ 24f/JJ	.
24r	24EE\ 24E\LL	2r	.
24D#/ 24d#/LL	24r	.	.
24r	24DDn\ 24Dn\	.	.
24C#/ 24c#/	24r	.	.
24r	24CCn\ 24Cn\JJ	.	.
24BBn/ 24Bn/JJ	24r	.	.
24r	24BBB-\ 24BB-\LL	.	.
24AA/ 24A/LL	24r	.	.
24r	24GGG#\ 24GG#\	.	.
24GGn/ 24Gn/	24r	.	.
24r	24FFF#\ 24FF#\JJ	.	.
24FFn/ 24Fn/JJ	24r	.	.
=214	=214	=214	=214
24r	12EEE\ 12EE\L	1r	>
24FFn/ 24Fn/LL	.	.	.
24r	12FF#\	.	.
24GG/ 24G/	.	.	.
24r	12GG#\J	.	.
24AA/ 24A/JJ	.	.	.
24r	12BB-\L	.	.
24AA/ 24A/LL	.	.	.
24r	12GG#\	.	.
24GGn/ 24Gn/	.	.	.
24r	12FF#\J	.	.
(24FFn/ 24Fn/JJ	.	.	.
24E/LL	24EE\LL	.	.
24D#/	24DD#\	.	.
24Dn/	24DDn\	.	.
24C#/	24CC#\	.	.
24Cn/	24CCn\	.	.
24BBn/	24BBB\	.	.
24BB-/	24BBB-\	.	.
24AA/	24AAA\	.	.
24GG#/	24GGG#\	.	.
24GGn/	24GGGn\	.	.
24FF#/	24FFF#\	.	.
24FFn/JJ	24FFFn\JJ	.	.
*v	*v	*	*
=215	=215	=215
8EEE'/ 8EE'/	4r	.
8r	.	.
*clefG2	*	*
2e/ 2g/	2dd-\ 2gg\ 2bb-\	mf
[4e/ [4g/	[4dd-\ [4gg\ [4bb-\	.
=216	=216	=216
4e/] 4g/]	4dd-\] 4gg\] 4bb-\]	.
4e'/ (4g'/	4ccn'\ 4gg'\ (4bb-'\	.
4e'/ 4g'/	4cc'\ 4gg'\ 4bb-'\	.
4f#'/ 4a'/	4cc'\ 4dd#'\ 4aa'\	.
=217	=217	=217
*	*^	*
[1b-	(4.ff#/	[1ccn [1ee	.
.	8gg/	.	.
.	[2ddd/	.	.
=218	=218	=218	=218
1b-_	8ddd/L]	1cc_ 1ee_	.
.	8cccn/	.	.
.	8.bb-/	.	.
.	16aa/Jk	.	.
.	[2aa^/	.	.
=219	=219	=219	=219
4b-/]	4aa/]	4cc\] 4ee\]	.
4r	4gg/	4r	.
2r	2r	2r	.
*clefF4	*	*	*
*	*v	*v	*
=220	=220	=220
4r	4r	.
4G'/ (4cn'/	4e'/ (4b-'/	.
4G'/ 4c'/	4e'/ 4b-'/	.
4F#'/ 4c'/	4d#'/ 4a'/	.
=221	=221	=221
*	*^	*
[1B-	(4.f#/	[1cn [1e	.
.	8g/	.	.
.	[2dd/	.	.
=222	=222	=222	=222
1B-_	4dd/]	1c_ 1e_	.
.	4ccn/	.	.
.	4.b-/	.	.
.	8a/	.	.
=223	=223	=223	=223
1B-]	(2.a/	1c] 1e]	.
.	[4g/	.	.
*	*v	*v	*
=224	=224	=224
1E; 1A#; 1c#;	3g/]	.
.	(6f#'/	.
.	6a#'/	.
.	4g#;/	.
.	12f#/	.
=225	=225	=225
*k[f#c#g#d#a#]	*k[f#c#g#d#a#]	*k[f#c#g#d#a#]
8DD#/	4.f#\ 4.b\ 4.dd#\ (4.ff#\	.
(16D#/LL	.	.
16F#/	.	.
16B/	.	.
16d#/JJ	.	.
24g#\LL	24gg#\LL	.
24f#\	24ff#\	.
24e#\JJ	24ee#\JJ	.
8f#\	8ff#\	.
8r	4cc#^\ (4ccc#^\	.
4r	.	.
.	8b\ 8bb\	.
=226	=226	=226
8DD#/	4.a#\ 4.ff##\ (4.aa#\	.
(16F##/LL	.	.
16B/	.	.
16d#/	.	.
16f##/JJ	.	.
*clefG2	*	*
24b/LL	24bb\LL	.
24a#/	24aa#\	.
24g##/JJ	24gg##\JJ	.
8a#/	8aa#\	.
8r	4ee^\ (4eee^\	.
4r	.	.
.	8dd#\ 8ddd#\	.
*clefF4	*	*
=227	=227	=227
8EE/	8dd#\ 8gg#\ (8ddd#\	.
16G#/LL	4cc#'\ 4ccc#'\	.
16B/	.	.
16e/	.	.
16g#/JJ	.	.
8r	8b'\ 8bb'\	.
4r;	4.a#^;\ (4.aa#^;\	.
4r	.	.
.	8g#\ 8gg#\	.
=228	=228	=228
8EE/	4.gn\ 4.ccn\ 4.ee\ (4.ggn\	.
(16E/LL	.	.
16Gn/	.	.
16cn/	.	.
16e/JJ	.	.
24an\LL	24aan\LL	.
24gn\	24gg\	.
24f#\JJ	24ff#\JJ	.
8g\	8gg\	.
8r	4ddn\ (4dddn\	.
4r	.	.
.	8cc\ 8cccn\	.
=229	=229	=229
8GGn/	4.b\ 4.ee\ (4.bb\	.
*clefG2	*	*
(16B/LL	.	.
16e/	.	.
16gn/	.	.
16b/JJ	.	.
24ccn\LL	24cccn\LL	.
24b\	24bb\	.
24a#\JJ	24aa\JJ	.
8b\	8bb\	.
8r	4ff#^\ (4fff#^\	.
4r	.	.
.	8ggn\ 8gggn\	.
*clefF4	*	*
=230	=230	=230
8FF#/	4ff##\ 4fff##\	<
*clefG2	*	*
16A#/LL	.	.
16c#/	.	.
16e/	[2gg#\ 2ggg#\	.
[16g#/JJ	.	.
8g#/_ [8cc#/	.	.
4g#/] 4cc#/]	.	.
4r	24gg#\] 24ggg#\LL	.
.	24eee#\	.
.	24ggg#\	.
.	24fff#\	.
.	24eeen\	.
.	24bb#\JJ	.
=231	=231	=231
*k[f#c#g#d#a#]	*k[f#c#g#d#a#]	*k[f#c#g#d#a#]
1r	24eee\LL	.
.	24ddd#\	.
.	24ccc#\	.
.	24gg##\	.
.	24bbn\	.
.	24aa#\	.
.	24gg#\	.
.	24ee#\	.
.	24gg#\	.
.	24ff#\	.
.	24een\	.
.	24b#\	.
.	24ee\	.
.	24dd#\	.
.	24cc#\	.
.	24g##\	.
.	24bn\	.
.	24a#\	.
.	24g#\	.
.	24e#\	.
.	24g#\	.
.	24f#\	.
.	24en\	.
.	24B#\JJ	.
*clefF4	*	*
=232	=232	=232
16e/LL	1r	.
16d#/	.	.
16c#/	.	.
16G##/	.	.
16B/	.	.
16A#/	.	.
16E#/	.	.
16G#/JJ	.	.
12F#/L	.	.
12En/	.	.
12BB#/	.	.
12E/	.	.
12D#/	.	.
12C#/J	.	.
=233	=233	=233
8GG##/L	2r	.
8BB/	.	.
8AA#/	.	.
8EE#/J	.	.
4.GG#;/	4r	.
.	8r	.
8FF#/ 8E/	(8F#/ 8c##/ 8f#/	.
=234	=234	=234
1BBB	[4F#/ [4B/ [4d#/	p
.	8F#/] 8B/] 8d#/] 8f#/	.
.	8d#\ 8f#\ 8b\L	.
.	8B\ 8d#\ 8g#\J	.
.	8G#/ 8B/ 8e/L	.
.	8E/ 8G#/ 8c#/J	.
.	8F#\ 8A#\ 8d#\	.
=235	=235	=235
*^	*	*
2r	2r	8G#\ 8c#\ 8e\	.
.	.	8F#/ 8A#/ 8d#/	.
.	.	8G#\ 8c#\ 8e\	.
.	.	8A#/ 8c#/ 8g#/	.
8r	8r	4G#/ 4c##/ 4e#/	.
4BB/	(8FF#\L	.	.
.	8BBB\	4F#/ 4d#/ 4f#/	.
[8BB/	[8FF#\J	.	.
*v	*v	*	*
=236	=236	=236
1BBB 1FF#] 1BB]	8r	.
.	8f#/ 8b/ 8dd#/L	.
.	8b/ 8dd#/ 8ff#/J	.
.	8dd#\ 8ff#\ 8bb\L	.
.	8b\ 8dd#\ 8gg#\J	.
.	8g#/ 8b/ 8ee/L	.
.	8e/ 8g#/ 8cc#/J	.
.	8f#\ 8a#\ 8dd#\	.
=237	=237	=237
*^	*	*
2r	2r	8g#\ 8cc#\ 8ee\	.
.	.	8f#/ 8a#/ 8dd#/	.
.	.	8g#\ 8cc#\ 8ee\	.
.	.	8a#/ 8cc#/ 8gg#/	.
8r	8r	4g#/ 4cc##/ 4ee#/	.
4BB/	(8FF#\L	.	.
.	8BBB\	4f#/ 4dd#/ &(4ff#/&	.
[8BB/	[8FF#\J	.	.
=238	=238	=238	=238
4.FF#/] 4.BB/]	4.BBB\	8r	.
.	.	8An/ 8d#/ 8f#/L	.
.	.	8c#/ 8e/ 8an/J	.
8r	8r	8e\ 8a\ 8cc#\	.
8r	8r	4c#/ 4e/ 4a/	.
4BB/	(8FF#\L	.	.
.	8BBB\	4A#/ 4d#/ &(4f#/&	.
[8BB/	[8FF#\J	.	.
=239	=239	=239	=239
4.FF#/] 4.BB/]	4.BBB\	8r	.
.	.	8c#/ 8e/ 8an/L	.
.	.	8e/ 8a/ 8cc#/J	.
8r	8r	8f#\ 8cc#\ 8ee\	.
8r	8r	4e/ 4a/ 4cc#/	.
4BB/	(8FF#\L	.	.
.	8BBB\	4d#/ 4f#/ &(4a/&	.
[8BB/	[8FF#\J	.	.
*v	*v	*	*
=240	=240	=240
1BBB 1FF#] 1BB]	8r	.
.	8e/ 8an/ 8cc#/L	.
.	8f#/ 8a/ 8ee/J	.
.	8cc#/ 8ee/ 8aan/L	.
.	8a/ 8cc#/ 8ff#/J	.
.	8f#/ 8a/ 8dd#/L	.
.	8e/ 8a/ &(8cc#/J&	.
.	8cc#/ 8ee/ 8aa/	.
=241	=241	=241
*^	*	*
2r	2r	8an/ 8cc#/ 8ff#/	.
.	.	8f#/ 8a/ 8dd#/L	.
.	.	8e/ 8a/ 8cc#/	.
.	.	8c#/ 8e/ 8a/J	.
8r	8r	4.An/ 4.d#/ 4.f#/	.
4BB/	(8BB\L	.	.
.	8BBB\	.	.
8BB-/	8BB-\J	[8B-/ [8e-/ [8gn/	.
*v	*v	*	*
=242	=242	=242
*k[b-e-a-]	*k[b-e-a-]	*k[b-e-a-]
1BBB- 1BB-	4B-/_ 4e-/_ 4g/_	.
.	8B-/] 8e-/] 8g/] &(8b-/&	.
.	8g/ 8b-/ 8ee-/L	.
.	8e-/ 8g/ 8cc/J	.
.	8c/ 8e-/ 8a-/L	.
.	8A-/ 8c/ 8f/J	.
.	8B-/ 8d/ 8g/	.
=243	=243	=243
*^	*	*
2r	2r	8c/ 8f/ 8a-/	.
.	.	8B-/ 8d/ 8g/	.
.	.	8c\ 8f\ 8a-\	.
.	.	8d/ 8a-/ 8cc/	.
8r	8r	(4c/ 4e-/ 4f#/ 4an/	.
4BB-/	8BB-\L	.	.
.	8BBB-\	4B-/ 4e-/ 4g/ &(4b-/&	.
8BB-/	[8BB-\J	.	.
*v	*v	*	*
=244	=244	=244
1BBB- 1BB-]	8r	.
.	8b-\ 8ee-\ (8gg\L	.
.	8ee-\ 8gg\ 8bb-\J	.
.	8gg\ 8bb-\ 8eee-\L	.
.	8ee-\ 8gg\ 8ccc\J	.
.	8cc\ 8ee-\ 8aa-\L	.
.	8a-\ 8cc\ 8ff\J	.
.	8b-\ 8dd\ 8gg\	.
=245	=245	=245
*^	*	*
2r	2r	8cc\ 8ff\ 8aa-\	.
.	.	8b-\ 8dd\ 8gg\	.
.	.	8cc\ 8ff\ 8aa-\	.
.	.	8dd\ 8aa-\ 8ccc\	.
8r	8r	4cc\ 4ff#\ 4aan\	.
4E-/	(8BB-\L	.	.
.	8EE-\	4b-\ 4gg\ 4bb-\	.
[8E-/	8BB-\J	.	.
=246	=246	=246	=246
4.BB-/ 4.E-/]	4.EE-\	8r	.
.	.	8d-/ 8g/ 8b-/L	.
.	.	8f/ 8a-/ 8dd-/J	.
8r	8r	8a-\ 8dd-\ 8ff\	.
8r	8r	4f/ 4a-/ 4dd-/	.
4E-/	(8BB-\L	.	.
.	8EE-\	4d-/ 4g/ &(4b-/&	.
[8E-/	8BB-\J	.	.
=247	=247	=247	=247
4.BB-/ 4.E-/]	4.EE-\	8r	.
.	.	8f\ 8a-\ 8dd-\L	.
.	.	8a-\ 8dd-\ 8ff\J	.
8r	8r	8b-\ 8dd-\ 8aa-\	.
8r	8r	4a-\ 4dd-\ 4ff\	.
4E-/	(8BB-\L	.	.
.	8EE-\	8g\ 8b-\ &(8dd-\&	.
[8E-/	8BB-\J	8r	.
=248	=248	=248	=248
4BB-/ 4E-/]	4EE-\	8r	.
.	.	8a-\ 8dd-\ 8ff\L	.
4r	4r	8dd-\ 8ff\ 8aa-\J	.
.	.	8ff\ 8aa-\ 8ddd-\L	.
2r	2r	8dd-\ 8ff\ 8aa-\J	.
.	.	8a-\ 8dd-\ 8ff\L	.
.	.	8g\ 8b-\ &(8dd-\J&	.
.	.	8ff\ 8aa-\ 8ddd-\	.
*v	*v	*	*
=249	=249	=249
*	*^	*
2r	8dd-\ 8ff\ 8aa-\	4r	.
.	8a-/ 8dd-/ 8ff/L	.	.
.	8g/ 8b-/ &(8dd-/J&	4r	.
.	8f/ 8a-/ (8dd-/L	.	.
4r	8d-/ 8f/ 8a-/J	4r	.
.	8A-/ 8d-/ 8f/	.	.
4EE-/	8d-/	4G\ 4B-\	.
.	8e-/	.	.
*	*v	*v	*
=250	=250	=250
*k[f#c#g#d#a#]	*k[f#c#g#d#a#]	*k[f#c#g#d#a#]
*^	*	*
4.FFF#/ 4.FF#/	4.r	8r	.
.	.	8G#/ 8c#/ (8e/L	.
.	.	8B/ 8e/ 8g#/J	.
8r	8r	8d#/ 8g#/ 8b/	.
8r	8r	4B/ 4e/ 4g#/	.
4FF#/	8FF#\L	.	.
.	8FFF#\	8A#/ 8c#/ 8e/	.
8FF#/	[8FF#\J	8r	.
=251	=251	=251	=251
4.FF#/]	4.FFF#\	8r	.
.	.	8B/ 8e/ (8g#/L	.
.	.	8d#/ 8g#/ 8b/J	.
8r	8r	8g#/ 8cc#/ 8ee/	.
8r	8r	4e/ 4g#/ 4cc#/	.
4FF#/	8FF#\L	.	.
.	8FFF#\	8c#/ 8e/ 8a#/	.
[8FF#/	8FF#\J	8r	.
=252	=252	=252	=252
4.FF#/]	4.FFF#\	8r	.
.	.	8e/ 8g#/ (8cc#/L	.
.	.	8g#/ 8b/ 8ee/J	.
8r	8r	8b/ 8dd#/ 8gg#/	.
2r	2r	8g#/ 8b/ 8ee/L	.
.	.	8e/ 8a#/ 8cc#/	.
.	.	8c#/ 8f#/ 8a#/J	.
.	.	8b/ 8dd#/ (8gg#/	.
=253	=253	=253	=253
*	*	*^	*
4r	2r	8g#/ 8b/ 8ee/	2r	.
.	.	8e/ 8a#/ 8cc#/	.	.
8r	.	8c#/ 8f#/ 8a#/	.	.
8B/	.	8d#/ (8g#/	.	.
8G#/L	4r	8e/L	4B\	.
8Dn/	.	8e#/	.	.
8C#;/	4C#;\	(8.g#;/	4A#\ 4en\	.
8F#/J	.	.	.	.
.	.	16f#/Jk	.	.
*v	*v	*	*	*
*	*v	*v	*
=254	=254	=254
*MM160	*MM160	*MM160
*M6/4	*M6/4	*M6/4
*^	*	*
[2.F#/	4BBB\ 4D#\	4r	.
.	4r	(8B/L	.
.	.	8f#/	.
.	4r	8d#/	.
.	.	8B/J	.
4F#/]	2.r	8f#/L	.
.	.	8d#/J	.
4G#/	.	4r	.
4A#/	.	4r	.
=255	=255	=255	=255
*MM116	*MM116	*MM116	*MM116
[2.B/	4GGG#\ 4BB\	4r	.
.	4r	(8d#/L	.
.	.	8b/	.
.	4r	8g#/	.
.	.	8d#/J	.
4B/]	2.r	8b/L	.
.	.	8g#/J	.
(4D#/	.	4r	.
8A#/L	.	4r	.
8G#/J	.	.	.
*	*	*clefF4	*clefF4
=256	=256	=256	=256
[2.F#/	4CC#\ 4GG#\ 4C#\	4r	.
.	4r	8G#/L	.
.	.	8f#/	.
.	4r	8c#/	.
.	.	8G#/J	.
4F#/]	2.r	8f#/L	.
.	.	&(8c#/J&	.
(4E'/	.	4r	.
4D#'/	.	4r	.
=257	=257	=257	=257
[2.C#/	4FFF#\ 4AA#\	4r	.
.	4r	(8F#/L	.
.	.	8c#/	.
.	4r	8A#/	.
.	.	8F#/J	.
4C#/]	2.r	8c#/L	.
.	.	8A#/J	.
4r	.	4r	.
4C#/	.	4r	.
*	*	*clefG2	*clefG2
=258	=258	=258	=258
2.C#/	4EE#\	8r	.
.	.	(8G#/L	<
.	4r	8B/	.
.	.	8g#/	.
.	4r	8c#/	.
.	.	8B/J	.
2D#/	4EEn\	8r	.
.	.	(8A#/L	.
.	4r	8c#/	.
.	.	8a#/	.
4E/	4r	8f#/	.
.	.	8c#/J	.
=259	=259	=259	=259
2.F#/	4DD#\	8r	.
.	.	(8B/L	.
.	4r	8d#/	.
.	.	8b/	.
.	4r	8f#/	.
.	.	8d#/J	.
2G#/	4BB\	8r	.
.	.	(8d#/L	.
.	4r	8f#/	.
.	.	8dd#/	.
4G##/	4r	8g##/	.
.	.	8f#/J	.
=260	=260	=260	=260
([2.A#/	4AA#\	8r	.
.	.	(8d#/L	.
.	4r	8a#/	.
.	.	8ff#/	.
.	4r	8f#/	.
.	.	8dd#/J	.
4A#/]	2.r	4aa#/	.
4c##'/	.	4r	.
4d#'/	.	4r	.
*v	*v	*	*
=261	=261	=261
*	*^	*
4r	2f#\	8r	.
.	.	(8F#/L	.
4r	.	8c##/	.
.	.	8a#/	.
4AA#\ 4G#\ 4c##\	4e#\	8e#/	.
.	.	8A#/J	.
4r	2d#\	8r	.
.	.	(8F#/L	.
4r	.	8A#/	.
.	.	8f#/	.
4FF#\ 4E\ 4A#\	4c#\	8c#/	.
.	.	8F#/J	.
=262	=262	=262	=262
4BBB/ 4D#/	12r	2F#\ 2f#\	.
.	12r	.	.
.	(12B/	.	p
12F#\L	12d#/L	.	.
12B\	12f#/	.	.
12d#\J	12b/ 12ff#/J	.	.
*clefG2	*	*	*
12f#/L	2.r	12dd#\L	.
12b/	.	12ff#\	.
12dd#/J	.	12bb\ 12fff#\J	.
8ff#\	.	4.r	.
8r	.	.	.
4r	.	.	.
.	.	4G#/ 4g#/	.
4r	4A#/ 4a#/	.	.
.	.	8ddd#\	.
*clefF4	*	*	*
=263	=263	=263	=263
12GG#/L	2B\ 2b\	12r	.
12D#/	.	12r	.
12G#/J	.	(12d#/	.
*clefG2	*	*	*
12B/L	.	8ggg#\	.
12d#/	.	.	.
.	.	2r	.
12g#/J	.	.	.
12b\L	12g#\L	.	.
12dd#\	12b\	.	.
12gg#\J	12dd#\ 12bb\J	.	.
8bb\	2r	.	.
8r	.	8r	.
4r	.	4D#/ 4d#/	.
4r	12gg#\L	8A#/ 8a#/L	.
.	12bb\	.	.
.	.	8G#/ 8g#/J	.
.	12ddd#\ 12bbb\J	.	.
*clefF4	*	*	*
=264	=264	=264	=264
12CC#/L	2F#^\ 2f#^\	12r	.
12GG#/	.	12r	.
12C#/J	.	(12G#/	.
12F#\L	.	12c#/L	.
12G#\	.	12f#/	.
12c#\J	.	12cc#/ 12ff#/J	.
*clefG2	*	*	*
12f#/L	12cc#\L	2r	.
12g#/	12ff#\	.	.
12cc#/J	12gg#\ 12fff#\J	.	.
8ff#\	8ccc#\	.	.
8r	8r	.	.
*	*clefF4	*clefF4	*
4r	4E\ 4e\	2r	.
4r	4D#\ 4d#\	.	.
*clefF4	*	*	*
=265	=265	=265	=265
12FFF#/L	2C#\ 2c#\	12r	.
12FF#/	.	12r	.
*	*clefG2	*clefG2	*
12AA#/J	.	(12F#/	.
12C#\L	.	12A#/L	.
12F#\	.	12c#/	.
12A#\J	.	12f#/ 12cc#/J	.
*clefG2	*	*	*
12c#/L	12a#\L	2r	.
12f#/	12cc#\	.	.
12a#/J	12ff#\ 12ccc#\J	.	.
8cc#\	8aa#\	.	.
8r	8r	.	.
4r	2r	4r	.
4r	.	4c#/	.
*clefF4	*	*	*
=266	=266	=266	=266
8EE#\ (8C#\L	12r	2.c#^\	.
.	(12g#/L	.	.
8E#\	.	.	.
.	12cc#/J	.	.
8G#\	12b/L	.	.
.	12cc#/	.	.
8B\J	.	.	.
.	12gg#/ 12ccc#/J	.	.
8c#'\	8bb/	.	.
8r	8r	.	.
8EEn\ (8C#\L	12r	2.d#^\	.
.	(12f#/L	.	.
8F#\	.	.	.
.	12dd#/J	.	.
8A#\	12a#/L	.	.
.	12dd#/	.	.
8c#\J	.	.	.
.	12ff#/ 12eee/J	.	.
4e^\	8aa#/	.	.
.	8r	.	.
=267	=267	=267	=267
8DD#\ (8BB\L	12r	2.f#^\	.
.	(12b/L	.	.
8F#\	.	.	.
.	12ff#/J	.	.
8B\	12dd#/L	.	.
.	12ff#/	.	.
8d#\J	.	.	.
.	12bb/ 12fff#/J	.	.
8f#'\	8ddd#/	.	.
8r	8r	.	.
8DDn\ (8BB#\L	12r	2.g#^\	.
.	(12b#/L	.	.
8F#\	.	.	.
.	12gg#/J	.	.
8B#\	12ff#/L	.	.
.	12gg#/	.	.
8f#\J	.	.	.
.	12bb#/ 12aaan/J	.	.
4An^\	8fff#/	.	.
.	8r	.	.
=268	=268	=268	=268
12CC#/L	2A#\ 2a#\	12r	.
12AA#/	.	12r	.
12F#/J	.	(12c#/	.
*clefG2	*	*	*
12A#/L	.	12f#/L	.
12c#/	.	12a#/	.
12f#/J	.	12cc#/ 12aa#/J	.
12a#\L	12ff#\L	4r	.
12cc#\	12aa#\	.	.
12ff#\J	12ccc#\ 12aaa#\J	.	.
4r	4r	12ff#/L	.
.	.	12a#/	.
.	.	12a#/J	.
4r	12fff#\L	4r	.
.	12aa#\	.	.
.	12cc#\ 12aa#\J	.	.
*clefF4	*	*	*
4CC#/ 4E#/	4c#\	12e#/L	.
.	.	12B/	.
.	.	12g#/J	.
*	*v	*v	*
=269	=269	=269
*MM144	*MM144	*MM144
*met(C	*met(C	*met(C
*M4/4	*M4/4	*M4/4
8FF#\	4A#/ 4f#/	.
16C#\LL	.	.
16F#\JJ	.	.
16A#\LL	4r	.
16c#\	.	.
16f#\	.	.
16a#\JJ	.	.
16f#\LL	8r	.
16c#\	.	.
16A#\	8f#\ (8ff#\L	.
16F#\JJ	.	.
8C#'/	8gn\ 8ggn\	.
8r	8g#\ 8gg#\J	.
=270	=270	=270
8FF#\	2an\ 2ddn\ 2ff#\ 2aan\	.
16Dn\LL	.	.
16F#\JJ	.	.
16An\LL	.	.
16dn\	.	.
16f#\	.	.
16an\JJ	.	.
16f#\LL	(8aa\	.
16d\	.	.
16A\	4ee\ 4eee\	.
16F#\JJ	.	.
8D\	.	.
8r	8dd\ 8dddn\	.
=271	=271	=271
8FF#\	2cc#\ 2ff#\ 2aa#\ 2ccc#\	.
(16C#\LL	.	.
16F#\JJ	.	.
16A#\LL	.	.
16c#\	.	.
16f#\	.	.
16a#\JJ	.	.
16f#\LL	(8ccc#\	.
16c#\	.	.
16A#\	4ggn\ 4gggn\	.
16F#\JJ	.	.
8C#'/	.	.
8r	8ff#\ 8fff#\	.
=272	=272	=272
8FFn\	8ff#\ 8bb\ 8fff#\	.
(16E\LL	4ee\ 4eee\	.
16Gn\JJ	.	.
16B\LL	.	.
16e\	.	.
16gn\	[8ddn\ [8dddn\	.
16b\JJ	.	.
16g\LL	8dd\] 8ddd\]	.
16e\	.	.
16B\	4cc#\ 4ccc#\	.
16G\JJ	.	.
8E\	.	.
8r	8b\ 8bb\	.
=273	=273	=273
8FF#\	4ddn\ 4ff#\ 4aa#\ (4dddn\	.
16C#\LL	.	.
16F#\JJ	.	.
16A#\LL	4cc#\ 4ccc#\	.
16c#\	.	.
16f#\	.	.
16a#\JJ	.	.
16f#\LL	8r	.
16c#\	.	.
*	*8va	*
16a#\	8ff#\ (8fff#\L	.
16f#\JJ	.	.
8c#'/	8ggn\ 8gggn\	.
8r	8gg#\ 8ggg#\J	.
=274	=274	=274
8F#\	2aan\ 2dddn\ 2fff#\ 2aaan\	.
(16dn\LL	.	.
16f#\JJ	.	.
16an\LL	.	.
16ddn\	.	.
16ff#\	.	.
16aan\JJ	.	.
16ff#\LL	8aaa\	.
16dd\	.	.
16a\	4eee\ 4eeee\	.
16f#\JJ	.	.
8d\	.	.
8r	8dddn\ 8ddddn\	.
=275	=275	=275
8F#\	2ccc#\ 2fff#\ 2aaa#\ 2cccc#\	.
(16c#\LL	.	.
16f#\JJ	.	.
16a#\LL	.	.
16cc#\	.	.
16ff#\	.	.
16aa#\JJ	.	.
16ff#\LL	(8cccc#\	.
16cc#\	.	.
16a#\	4gggn\ 4ggggn\	.
16f#\JJ	.	.
8c#'/	.	.
8r	8fff#\ 8ffff#\	.
=276	=276	=276
*MM148	*MM148	*MM148
16Gn\LL	8fff#\ 8bbb\ 8ffff#\	.
16e\	.	.
16gn\	4eee'\ 4eeee'\	.
16b\JJ	.	.
16ee\LL	.	.
16ggn\	.	.
16bb\JJ	[8dddn'\ [8ddddn'\	.
16r	.	.
16G#\LL	8ddd\] 8dddd\]	.
16e\	.	.
16g#\	4ccc#'\ 4cccc#'\	.
16b\JJ	.	.
16ddn\LL	.	.
16ee\	.	.
16bb\JJ	8bb'\ 8bbb'\	.
16r	.	.
=277	=277	=277
16An\LL	8ggn\ 8ccc#\ 8gggn\	.
16e\	.	.
16an\	4ff#'\ 4fff#'\	.
16cc#\JJ	.	.
16ee\LL	.	.
16ggn\	.	.
16ccc#\JJ	[8ee'/ [8eee'/	.
16r	.	.
16A#\LL	8ee/] 8eee/]	.
16e\	.	.
16f#\	4dd#'/ 4ddd#'/	.
16cc#\JJ	.	.
16ee\LL	.	.
16ff#\	.	.
16ee\	8cc#'/ 8ccc#'/	.
16ff#\JJ	.	.
=278	=278	=278
16B#\LL	8aan\ 8ddd#\ (8aaan\	.
16f#\	.	.
16g#\	4ff##\ 4fff##\	.
16dd#\JJ	.	.
16ff#\LL	.	.
16gg#\	.	.
16ff#\	8gg#\ 8ggg#\	.
16gg#\JJ	.	.
16c#\LL	8bb\ 8eee\ (8bbb\	.
16f#\	.	.
16a#\	4gg##\ 4ggg##\	.
16ee\JJ	.	.
16ff#\LL	.	.
16aa#\	.	.
16ff#\	8aa#\ 8aaa#\	.
16aa#\JJ	.	.
=279	=279	=279
16d#\LL	8ccc#\ 8fff#\ (8cccc#\	.
16an\	.	.
16b#\	4bb\ 4bbb\	.
16ff#\JJ	.	.
16aan\LL	.	.
16bb#\	.	.
16aa\	8bb#\ 8bbb#\	.
16bb#\JJ	.	.
16E\ 16e\LL	[2ddd#\ [2fff#\ [2aaa#\ [2dddd#\	.
16f#\	.	.
16a#\	.	.
16cc#\JJ	.	.
*clefG2	*	*
16ee/LL	.	.
16ff#/	.	.
16aa#/	.	.
16ccc#/JJ	.	.
=280	=280	=280
*MM152	*MM152	*MM152
16eee\LL	4ddd#\] 4fff#\] 4aaa#\] 4dddd#\]	.
16fff#\	.	.
16aaa#\	.	.
16cccc#\JJ	.	.
8ddddn'\L	8r	.
16ccc#\ 16cccc#\Jk	16r	.
16r	16ddd#\ 16dddd#\	.
16aa#\ 16aaa#\	16r	.
16r	16ccc#\ 16cccc#\	.
16gg#\ 16ggg#\	16r	.
16r	16aa#\ 16aaa#\	.
16ff#\ 16fff#\	16r	.
16r	16gg#\ 16ggg#\	.
16dd#/ 16ddd#/	16r	.
16r	16ff#\ 16fff#\	.
*	*X8va	*
=281	=281	=281
*MM156	*MM156	*MM156
16c#/ 16cc#/	16r	.
16r	16dd#\ 16ddd#\	.
16A#/ 16a#/	16r	.
16r	16cc#\ 16ccc#\	.
16c#/ 16cc#/	16r	.
16r	16dd#\ 16ddd#\	.
16A#/ 16a#/	16r	.
16r	16cc#\ 16ccc#\	.
16G#/ 16g#/	16r	.
16r	16a#\ 16aa#\	.
16F#/ 16f#/	16r	.
16r	16g#\ 16gg#\	.
16G#/ 16g#/	16r	.
16r	16a#\ 16aa#\	.
16F#/ 16f#/	16r	.
16r	16g#\ 16gg#\	.
*clefF4	*	*
=282	=282	=282
16D#\ 16d#\	16r	.
16r	16f#\ 16ff#\	.
16C#\ 16c#\	16r	.
16r	16d#/ 16dd#/	.
16D#\ 16d#\	16r	.
16r	16f#\ 16ff#\	.
16C#\ 16c#\	16r	.
16r	16d#/ 16dd#/	.
16AA#\ 16A#\	16r	.
16r	16c#/ 16cc#/	.
16GG#/ 16G#/	16r	.
16r	16A#/ 16a#/	.
16AA#\ 16A#\	16r	.
16r	16c#/ 16cc#/	.
16GG#/ 16G#/	16r	.
16r	16A#/ 16a#/	.
*	*clefF4	*clefF4
=283	=283	=283
*MM160	*MM160	*MM160
16FF#/ 16F#/	16r	.
16r	16G#\ 16g#\	.
16DD#/ 16D#/	16r	.
16r	16F#\ 16f#\	.
16CC#/ 16C#/	16r	.
16r	16D#\ 16d#\	.
16AAA#/ 16AA#/	16r	.
16r	16C#\ 16c#\	.
16GGG#/ 16GG#/	16r	.
16r	16AA#\ 16A#\	.
16GGGn/ 16GGn/	16r	.
16r	16C#\ 16c#\	.
8FFF#/ 8FF#/	4r	.
8r	.	.
*	*clefG2	*clefG2
=284	=284	=284
*MM100	*MM100	*MM100
*M6/4	*M6/4	*M6/4
*^	*	*
4BB/ 4D#/ 4F#/ 4B/	4r	2.f#\ 2.b\ 2.dd#\ 2.ff#\	ff
(22AA#/LL	22AAA#\LL	.	.
22BB/	22BBB\	.	.
22C#/	22CC#\	.	.
22D#/	22DD#\	.	.
22E/	22EE\	.	.
22F#/	22FF#\	.	.
22G#/	22GG#\	.	.
22F#/	22FF#\	.	.
22E/	22EE\	.	.
22D#/	22DD#\	.	.
22C#/JJ	22CC#\JJ	.	.
8BB''/	&(8BBB\&	4r	.
8r	8r	.	.
4BB/ 4D#/ 4G#/ 4B/	4r	4g#\ 4b\ 4dd#\ 4gg#\	.
4D#/ 4F#/ 4A#/ 4d#/	4r	4a#\ 4dd#\ 4ff#\ 4aa#\	.
=285	=285	=285	=285
4GG#/ 4D#/ 4G#/ 4B/	4r	2.b\ 2.dd#\ 2.gg#\ 2.bb\	.
(22FF##/LL	(22FFF##\LL	.	.
22GG#/	22GGG#\	.	.
22AA#/	22AAA#\	.	.
22BB/	22BBB\	.	.
22C#/	22CC#\	.	.
22D#/	22DD#\	.	.
22E/	22EE\	.	.
22D#/	22DD#\	.	.
22C#/	22CC#\	.	.
22BB/	22BBB\	.	.
22AA#/JJ	22AAA#\JJ	.	.
8GG#/	8GGG#\	4r	.
8r	8r	.	.
4GG#/ 4D#/ 4G#/ (4B/	2r	4d#/ 4b/ (4dd#/	.
8BB/ 8D#/ 8A#/L	.	8a#\ 8aa#\L	.
8BB/ 8D#/ 8G#/J	.	8g#\ 8gg#\J	.
=286	=286	=286	=286
4C#/ 4G#/ 4c#/	4r	2.f#\ 2.cc#\ 2.ff#\	.
22BB#/LL	(22BBB#\LL	.	.
22C#/	22CC#\	.	.
22D#/	22DD#\	.	.
22E/	22EE\	.	.
22F#/	22FF#\	.	.
22G#/	22GG#\	.	.
22An/	22AAn\	.	.
22G#/	22GG#\	.	.
22F#/	22FF#\	.	.
22E/	22EE\	.	.
22D#/JJ	22DD#\JJ	.	.
&(8C#''/&	8CC#\	4r	.
8r	8r	.	.
4EE/ 4GG#/ 4C#/ 4G#/	2r	4e/ 4g#/ 4cc#/ 4ee/	.
4EE#/ 4BBn/ 4D#/ 4G#/	.	4d#/ 4g#/ 4b/ 4dd#/	.
=287	=287	=287	=287
4FF#/ 4C#/ 4F#/ 4A#/	4r	2.c#/ 2.a#/ 2.cc#/	.
22EE#/LL	(22EEE#\LL	.	.
22FF#/	22FFF#\	.	.
22GG#/	22GGG#\	.	.
22AA#/	22AAA#\	.	.
22BB/	22BBB\	.	.
22C#/JJ	22CC#\	.	.
22D#/LL	22DD#\	.	.
22C#/	22CC#\	.	.
22BB/	22BBB\	.	.
22AA#/	22AAA#\	.	.
22GG#/JJ	22GGG#\JJ	.	.
&(8FF#''/&	8FFF#\	4r	.
8r	8r	.	.
4r	2r	4r	.
4FF#/ 4AA#/ 4C#/ 4F#/	.	4c#/ 4f#/ 4a#/ 4cc#/	.
=288	=288	=288	=288
4EE#/ 4BB/ 4C#/ 4G#/	4r	2.c#/ 2.g#/ 2.cc#/	.
(24EE#/LL	(24EEE#\LL	.	.
24FF#/	24FFF#\	.	.
24GG#/	24GGG#\	.	.
24AA#/	24AAA#\	.	.
24BB/	24BBB\	.	.
24C#/	24CC#\	.	.
24D#/	24DD#\	.	.
24C#/	24CC#\	.	.
24BB/	24BBB\	.	.
24AA#/	24AAA#\	.	.
24GG#/	24GGG#\	.	.
24FF#/JJ	24FFF#\JJ	.	.
8EE#/	8EEE#\	4r	.
8r	8r	.	.
4EEn/ 4AA#/ 4C#/ 4D#/	2r	4d#/ 4f#/ 4a#/ 4dd#/	.
4EE/ 4AA#/ 4C#/ 4E/	.	4e/ 4f#/ 4a#/ 4ee/	.
=289	=289	=289	=289
4DD#/ 4BB/ 4F#/	4r	2.f#\ 2.b\ 2.ff#\	.
28DD#/LL	(28DDD#\LL	.	.
28EE/	28EEE\	.	.
28FF#/	28FFF#\	.	.
28GG#/	28GGG#\	.	.
28AA#/	28AAA#\	.	.
28BB/	28BBB\	.	.
28C#/	28CC#\	.	.
28D#/	28DD#\	.	.
28C#/	28CC#\	.	.
28BB/	28BBB\	.	.
28AA#/	28AAA#\	.	.
28GG#/	28GGG#\	.	.
28FF#/	28FFF#\	.	.
28EE/JJ	28EEE\JJ	.	.
8DD#/	8DDD#\	4r	.
8r	8r	.	.
4BB\ 4D#\ 4F#\ 4G#\	2r	4g#\ 4dd#\ 4gg#\	.
4BB\ 4D#\ 4F#\ 4G##\	.	4g##\ 4dd#\ 4gg##\	.
*v	*v	*	*
=290	=290	=290
8AA#'\ 8D#'\ 8F#'\ 8A#'\	16a#\ 16dd#\ 16ff#\LL	.
.	16aa#\	.
8F#'\ 8f#'\L	16a#\ 16dd#\ 16ff#\	.
.	16aa#\JJ	.
8E#'\ 8e#'\	16a#\ 16dd#\ 16ff#\LL	.
.	16aa#\	.
8D#'\ 8d#'\	16a#\ 16dd#\ 16ff#\	.
.	16aa#\JJ	.
8C#'\ 8c#'\	16a#\ 16dd#\ 16ff#\LL	.
.	16aa#\	.
8BB'\ 8B'\J	16a#\ 16dd#\ 16ff#\	.
.	16aa#\JJ	.
8AA#'/ 8A#'/L	16a#\ 16dd#\ 16ff#\LL	.
.	16aa#\	.
8FF#'/ 8F#'/	16a#\ 16dd#\ 16ff#\	.
.	16aa#\JJ	.
8EE#'/ 8E#'/	16dd#\ 16ff#\ 16aa#\LL	.
.	16ddd#\	.
8DD#'/ 8D#'/	16dd#\ 16ff#\ 16aa#\	.
.	16ddd#\JJ	.
8CC#'/ 8C#'/	16ff#\ 16aa#\ 16ddd#\LL	.
.	16fff#\	.
8BBB'/ 8BB'/J	16ff#\ 16aa#\ 16ddd#\	.
.	16fff#\JJ	.
=291	=291	=291
*	*8va	*
8AA#/ 8A#/L	16gg#\ 16ccc##\ 16fff#\LL	.
.	16aaa#\	.
8C##/ 8c##/	16gg#\ 16ccc##\ 16fff#\	.
.	16aaa#\JJ	.
8E#/ 8e#/	16gg#\ 16ccc##\ 16fff#\LL	.
.	16aaa#\	.
8G#/ 8g#/	16gg#\ 16ccc##\ 16fff#\	.
.	16aaa#\JJ	.
8B/ 8b/	16gg#\ 16ccc##\ 16eee#\LL	.
.	16aaa#\	.
8A#/ 8a#/J	16gg#\ 16ccc##\ 16eee#\	.
.	16aaa#\JJ	.
8F#\ 8f#\L	16ff#\ 16aa#\ 16ddd#\LL	.
.	16fff#\	.
8A#\ 8a#\	16ff#\ 16aa#\ 16ddd#\	.
.	16fff#\JJ	.
8c#\ 8cc#\	16ff#\ 16aa#\ 16ddd#\LL	.
.	16fff#\	.
8d#\ 8dd#\	16ff#\ 16aa#\ 16ddd#\	.
.	16fff#\JJ	.
8e#\ 8ee#\	16ee\ 16aa#\ 16ccc#\LL	.
.	16fff#\	.
8f#\ 8ff#\J	16ee\ 16aa#\ 16ccc#\	.
.	16fff#\JJ	.
*	*X8va	*
=292	=292	=292
*	*^	*
8.BBB\ 8.FF#\L	2d#/ 2f#/	8.F#\L	fff
16GG#\L	.	16G#\k	.
24AA#\	.	24A#\L	.
24BB\	.	24B\	.
24C#\	.	24c#\	.
24D#\	.	24d#\	.
24E\	.	24e\	.
24F#\	.	24f#\	.
24G#\	4r	24g#\	.
24A#\	.	24a#\	.
24B\	.	24b\	.
24c#\	.	24cc#\	.
24d#\	.	24dd#\	.
24e\JJ	.	24ee\JJ	.
8f#'\	2r	28ff#\LL	.
.	.	28gg#\	.
.	.	28aa#\	.
.	.	28bb\	.
8r	.	.	.
.	.	28ccc#\	.
.	.	28ddd#\	.
.	.	28eee\	.
4G#^\ 4d#^\ 4g#^\	.	28ff#\	.
.	.	28gg#\	.
.	.	28aa#\	.
.	.	28bb\	.
.	.	28ccc#\	.
.	.	28ddd#\	.
.	.	28eee\JJ	.
4A#^\ 4d#^\ 4a#^\	4r	8fff#\	.
.	.	8r	.
*	*X8va	*X8va	*
=293	=293	=293	=293
*^	*	*	*
8.BB/L	4GGG#\ 4DD#\ 4GG#\	2d#/ 2g#/ 2b/	8.B\L	.
16C#/k	.	.	16c#\k	.
24D#/L	4r	.	24d#\L	.
24E/	.	.	24e\	.
24F#/	.	.	24f#\	.
24G#/	.	.	24g#\	.
24A#/	.	.	24a#\	.
24B/JJ	.	.	24b\	.
*clefG2	*clefG2	*	*	*
24c#/LL	4r	4r	24cc#\	.
24d#/	.	.	24dd#\	.
24e/	.	.	24ee\	.
24f#/	.	.	24ff#\	.
24g#/	.	.	24gg#\	.
24a#/JJ	.	.	24aa#\JJ	.
*	*	*8va	*8va	*
8bb/	4r	2r	24bb\LL	.
.	.	.	24ccc#\	.
.	.	.	24ddd#\	.
8r	.	.	24eee\	.
.	.	.	24fff#\	.
.	.	.	24ggg#\	.
*clefF4	*clefF4	*	*	*
4d#/ 4b/ (4dd#/	4r	.	24aaa#\	.
.	.	.	24bbb\	.
.	.	.	24cccc#\	.
.	.	.	24dddd#\	.
.	.	.	24eeee\	.
.	.	.	24ffff#\JJ	.
8a#/ 8dd#/ 8aa#/L	4r	4r	8gggg#\	.
8g#/ 8gg#/J	.	.	8r	.
*v	*v	*	*	*
*	*X8va	*X8va	*
=294	=294	=294	=294
4CC#/ 4GG#/	2c#/ 2f#/	8.F#\L	.
.	.	16G#\k	.
24AA#/LL	.	24A#\L	.
24BB/	.	24B\	.
24C#/	.	24c#\	.
24D#/	.	24d#\	.
24E/	.	24e\	.
24F#/	.	24f#\	.
24G#/	4r	24g#\	.
24A#/	.	24a#\	.
24B/	.	24b\	.
24c#/	.	24cc#\	.
24d#/	.	24dd#\	.
24e/JJ	.	24ee\JJ	.
8f#/	2r	28ff#\LL	.
.	.	28gg#\	.
.	.	28aa#\	.
.	.	28bb\	.
8r	.	.	.
.	.	28ccc#\	.
.	.	28ddd#\	.
.	.	28eee\	.
*	*8va	*8va	*
4e^\ 4g#^\ 4cc#^\ 4ee^\	.	24fff#\	.
.	.	24ggg#\	.
.	.	24aaa#\	.
.	.	24bbb\	.
.	.	24cccc#\	.
.	.	24dddd#\JJ	.
4d#^\ 4g#^\ 4dd#^\	4r	8eeee\	.
.	.	8r	.
*	*X8va	*X8va	*
=295	=295	=295	=295
8.FFF#/ 8.CC#/L	2A#/ 2c#/	8.C#\L	.
16DD#/k	.	16D#\L	.
24EE/L	.	24E\	.
24FF#/	.	24F#\	.
24GG#/	.	24G#\	.
24AA#/	.	24A#\	.
24BB/	.	24B\	.
24C#/	.	24c#\	.
24D#/	4r	24d#\	.
24E/	.	24e\	.
24F#/	.	24f#\	.
24G#/	.	24g#\	.
24A#/	.	24a#\	.
24B/JJ	.	24b\JJ	.
*clefG2	*	*	*
28c#/LL	2r	28cc#\LL	.
28d#/	.	28dd#\	.
28e/	.	28ee\	.
28f#/	.	28ff#\	.
28g#/	.	28gg#\	.
28a#/	.	28aa#\	.
28b/JJ	.	28bb\	.
*	*8va	*8va	*
8ccc#/	.	28ccc#\	.
.	.	28ddd#\	.
.	.	28eee\	.
.	.	28fff#\	.
8r	.	.	.
.	.	28ggg#\	.
.	.	28aaa#\	.
.	.	28bbb\JJ	.
*clefF4	*	*	*
4f#^\ 4a#^\ 4cc#^\	4r	8cccc#\	.
.	.	8r	.
*	*X8va	*X8va	*
=296	=296	=296	=296
8.EEE#/ 8.CC#/L	2G#/ 2c#/	8.C#\L	.
16DD#/k	.	16D#\L	.
24EE#/L	.	24E#\	.
24FF#/	.	24F#\	.
24GG#/	.	24G#\	.
24AA#/	.	24A#\	.
24BB/	.	24B\	.
24C#/	.	24c#\	.
24D#/	4r	24d#\	.
24E#/	.	24e#\	.
24F#/	.	24f#\	.
24G#/	.	24g#\	.
24A#/	.	24a#\	.
24B/JJ	.	24b\JJ	.
8c#'/	4r	32cc#\LLL	.
.	.	32dd#\	.
.	.	32ee#\	.
.	.	32ff#\	.
8r	.	32gg#\	.
.	.	32aa#\	.
.	.	32bb\	.
.	.	32ccc#\	.
*	*8va	*8va	*
4en^\ 4f#^\ 4a#^\ 4dd#^\	2r	32ddd#\	.
.	.	32eee#\	.
.	.	32fff#\	.
.	.	32ggg#\	.
.	.	32aaa#\	.
.	.	32bbb\	.
.	.	32cccc#\	.
.	.	32dddd#\JJJ	.
4e^\ 4f#^\ 4a#^\ 4een^\	.	8eeee\	.
.	.	8r	.
*	*X8va	*X8va	*
=297	=297	=297	=297
8.DD#/ 8.FF#/L	2B/ 2f#/	8.F#\L	.
16GG#/k	.	16G#\k	.
28AA#/L	.	28A#\L	.
28BB/	.	28B\	.
28C#/	.	28c#\	.
28D#/	.	28d#\	.
28E/	.	28e\	.
28F#/	.	28f#\	.
28G#/	.	28g#\	.
28A#/	4r	28a#\	.
28B/	.	28b\	.
28c#/	.	28cc#\	.
28d#/	.	28dd#\	.
28e/	.	28ee\	.
28f#/	.	28ff#\	.
28g#/JJ	.	28gg#\JJ	.
*clefG2	*	*	*
*	*8va	*8va	*
4b#\ 4dd#\ 4ff#\ 4aan\	2.r	32aan\LLL	.
.	.	32bb#\	.
.	.	32ddd#\	.
.	.	32fff#\	.
.	.	32aaan\	.
.	.	32bbb#\	.
.	.	32dddd#\	.
.	.	32ffff#\	.
2r	.	32dddd#\	.
.	.	32aaa\	.
.	.	32fff#\	.
.	.	32ddd#\	.
.	.	32bb#\	.
.	.	32aa\	.
.	.	32ff#\	.
.	.	32dd#\	.
*	*X8va	*X8va	*
.	.	32b#\	.
.	.	32an\	.
.	.	32f#\	.
.	.	32d#\	.
.	.	32B#\	.
.	.	32An\	.
.	.	32F#\	.
.	.	32D#\JJJ	.
*clefF4	*clefF4	*	*
*	*v	*v	*
=298	=298	=298
*met(C	*met(C	*met(C
*M4/4	*M4/4	*M4/4
6DD#'/ 6BB#'/	12r	.
.	12r	.
12DD#'/ 12BB#'/	[12An/ [12an/	.
6EE'/ 6C#'/	12A/] 12a/L]	.
.	12G#/ 12g#/	.
12EE#'/ 12C##'/	[12B/ 12b/J	.
6FF#'/ 6D#'/	12B/] 12b/L	.
.	12A#/ 12a#/	.
12FFn'/ 12E'/	[12d-/ [12dd-/J	.
6AA-'/ 6Fn'/	12d-/] 12dd-/L]	.
.	12cn/ 12ccn/	.
12AAn'/ 12F#'/	[12e-/ [12ee-/J	.
=299	=299	=299
6BB-'\ 6Gn'\	12e-/] 12ee-/L]	.
.	12dn/ 12ddn/	.
12BBn'\ 12G#'\	12fn/ 12ffn/J	.
6Cn'\ 6An'\	12f/ 12ff/L	.
.	12en/ 12een/	.
12C#'\ 12A#'\	[12gn/ [12ggn/J	.
6Dn'\ 6B'\	12g/] 12gg/L]	.
.	12f#/ 12ff#/	.
12D#'\ 12B#'\	[12an/ [12aan/J	.
6E'\ 6c#'\	12a/] 12aa/L]	.
.	12g#/ 12gg#/	.
12E#'\ 12dn'\	12b/ 12bb/J	.
=300	=300	=300
16F#\ 16B\ 16d#\	16r	.
16r	16f#/ 16b/ 16dd#/ 16ff#/	.
16E#\ 16e#\	16r	.
16r	16g#/ 16gg#/	.
16En\ 16en\	16r	.
16r	16a#/ 16aa#/	.
16D#\ 16d#\	16r	.
16r	16b/ 16bb/	.
16C#\ 16c#\	16r	.
16r	16cc#/ 16ccc#/	.
16BB\ 16B\	16r	.
16r	16dd#/ 16ddd#/	.
16AA#\ 16A#\	16r	.
16r	16ee/ 16eee/	.
16GG#/ 16G#/	16r	.
16r	16ee#/ 16eee#/	.
=301	=301	=301
*	*8va	*
16F#/ 16f#/	16r	.
16r	16ff#/ 16fff#/	.
16E#/ 16e#/	16r	.
16r	16gg#/ 16ggg#/	.
16En/ 16en/	16r	.
16r	16aa#/ 16aaa#/	.
16D#/ 16d#/	16r	.
16r	16bb/ 16bbb/	.
16C#/ 16c#/	16r	.
16r	16ccc#/ 16cccc#/	.
16BB/ 16B/	16r	.
16r	16ddd#/ 16dddd#/	.
16AA#/ 16A#/	16r	.
16r	16eee/ 16eeee/	.
16GG#/ 16G#/	16r	.
16r	16eee#/ 16eeee#/	.
=302	=302	=302
*	*^	*
8FF#/ 8F#/	8fff#/ 8ffff#/	8r	.
*	*X8va	*X8va	*
4D#\ 4F#\	(8d#/L	4B\	>
.	8f#/	.	.
8D#\ 8F#\	8b/J	8B\ 8d#\	.
2E\ 2G#\	8g#/L	2B\ 2c#\	.
.	8e/	.	.
.	8c#/	.	.
.	8g#/J	.	.
=303	=303	=303	=303
8FFF#/ 8FF#/	8r	8r	.
4F#\ 4B\	(8f#/L	4d#\	.
.	8b/	.	.
8F#\ 8B\	8dd#/J	8d#\ 8f#\	.
2G#\ 2B\	8b/L	2c#\ 2e\	.
.	8g#/	.	.
.	8e/	.	.
.	8b/J	.	.
=304	=304	=304	=304
8FFF#/ 8FF#/	8r	8r	.
4F#\ 4B\ 4d#\	(8b/L	4f#\	.
.	8dd#/	.	.
8F#\ 8B\ 8d#\	8ff#/J	8f#\ 8b\	.
2G#\ 2B\	8dd#/L	2e\ 2g#\	.
.	8b/	.	.
.	8g#/	.	.
.	8dd#/J	.	.
=305	=305	=305	=305
*MM84	*MM84	*MM84	*MM84
*^	*	*	*
8FFF#\ 8FF#\	8r	8r	8r	.
(8f#/L	4F#\	(8dd#/L	4b\	.
8d#/	.	8ff#/	.	.
8f#/J	[8F#\	8bb/J	[8b\ 8dd#\	.
8e/L	2F#\_	8gg#/L	4b\] 4cc#\	.
8g#/	.	8ee/	.	.
8e/	.	8cc#/	[4g#\	.
8B#/J	.	8dd#/J	.	.
=306	=306	=306	=306	=306
8c#/L	4.F#\]	8ee/L	4.g#\]	.
8B#/	.	8dd#/	.	.
8c#/	.	8ee/	.	.
8e/J	[8F#\	8gg#/J	[8a#\	.
4c##/	2F#\_	4.ee#/	4a#\]	.
[4d#/	.	.	[4b\	.
.	.	&(8ff#/&	.	.
=307	=307	=307	=307	=307
8d#/L]	4.F#\]	8ff#/L	4.b\]	.
(8c##/	.	8ee#/	.	.
8d#/	.	8ff#/	.	.
8f#/J	[8F#\	8aa#/J	[8b\	.
4d#/	2F#\_	4.ff##/	4b\]	.
4e/	.	.	[4b#\	.
.	.	&(8gg#/&	.	.
=308	=308	=308	=308	=308
&(8e/L&	4F#\]	8gg#/L	4b#\]	.
*clefG2	*clefG2	*	*	*
(8d#/	.	8ff##/	.	.
8e/	4F#\	8gg#/	4cc#\	.
8g#/J	.	8bb/J	.	.
8b/L	2r	8ddd#/L	8gg#\	.
8g#/ 8ee/	.	8bb/	4cc#\	.
8e/ 8b/	.	8gg#/	.	.
8g#/ 8ee/J	.	8bb/J	8cc#\	.
*v	*v	*	*	*
=309	=309	=309	=309
8b/L	8ddd#/L	8gg#\	.
8g#/ 8ee/	8bb/	4cc#\	.
8e/ 8b/	8gg#/	.	.
8g#/ 8ee/J	8bb/J	8cc#\	.
4b\	4gg#/ 4ddd#/	2r	.
4g#\ 4ee\	[4cc#/ 4bb/	.	.
*	*v	*v	*
=310	=310	=310
2e/ 2b/	2cc#/] 2gg#/	.
2r	2r	.
*clefF4	*	*
=311	=311	=311
*	*^	*
4r	4r	2r	.
4B\	4g#\ (4dd#\	.	pp
4G#\ 4e\	4b/	2c#\	.
4E\ 4B\	4g#/	.	.
=312	=312	=312	=312
[1C# [1G#	2.e/	[1B	.
.	12f#/L	.	.
.	12e/	.	.
.	12d#/J	.	.
*	*v	*v	*
=313	=313	=313
4C#\] 4G#\]	4B/] 4e/	.
2FF#/ 2E/	.	.
.	2A#/ 2c#/ 2g#/	.
4FF#/ 4E/	.	.
.	4A#/ 4c##/ 4g#/	.
=314	=314	=314
[1BBB [1FF# [1E	[1F# [1A# [1c## [1g#	.
=315	=315	=315
4BBB/] 4FF#/] 4E/]	4F#/] 4A#/] 4c##/] 4g#/]	.
[2.BBB/ [2.FF#/ [2.D#/	.	.
.	[2.F#^/ [2.B^/ [2.d#^/ [2.g#^/	.
=316	=316	=316
1BBB;] 1FF#;] 1D#;]	1F#;] 1B;] 1d#;] 1g#;]	pp
==	==	==
*-	*-	*-
!!!ENC: Craig Stuart Sapp
!!!END: 2004/12/04/
